;woodified gcode, see graph at the end - jeremie.francois@gmail.com - generated on 20201209-0646
M230 S0
M104 S200
M230 S1
M116
M190 S60.000000
M109 S200.000000
;Sliced at: Wed 09-12-2020 00:28:37
;Basic settings: Layer height: 0.2 Walls: 0.8 Fill: 50
;Print time: 35 minutes
;Filament used: 1.774m 5.0g
;Filament cost: None
;M190 S60 ;Uncomment to add your own bed temperature line
;M109 S200 ;Uncomment to add your own temperature line
G21        ;metric values
G90        ;absolute positioning
M82        ;set extruder to absolute mode
M107       ;start with the fan off
G28 X0 Y0  ;move X/Y to min endstops
G28 Z0     ;move Z to min endstops
G1 Z15.0 F3000 ;move the platform down 15mm
G92 E0                  ;zero the extruded length
G1 F200 E3              ;extrude 3mm of feed stock
G92 E0                  ;zero the extruded length again
G1 F3000
;Put printing message on LCD screen
M117 Printing...

;Layer count: 81
;LAYER:0
M106 S127
G0 F3000 X64.626 Y15.864 Z0.300
;TYPE:SKIRT
G1 F1200 X150.947 Y15.864 E4.30657
G1 X153.034 Y17.951 E4.45382
G1 X156.926 Y18.918 E4.65390
G1 X156.926 Y21.843 E4.79983
G1 X158.055 Y22.972 E4.87948
G1 X156.926 Y25.694 E5.02650
G1 X156.926 Y42.264 E5.85318
G1 X64.026 Y42.264 E10.48798
G1 X64.026 Y26.385 E11.28019
G1 X62.688 Y23.180 E11.45346
G1 X64.026 Y21.842 E11.54787
G1 X64.026 Y19.108 E11.68426
G1 X64.626 Y18.960 E11.71510
G1 X64.626 Y15.864 E11.86956
G0 F3000 X65.026 Y16.264
G1 F1200 X150.781 Y16.264 E16.14789
G1 X152.829 Y18.312 E16.29239
G1 X156.526 Y19.231 E16.48245
G1 X156.526 Y22.009 E16.62104
G1 X157.583 Y23.066 E16.69562
G1 X156.526 Y25.613 E16.83320
G1 X156.526 Y41.864 E17.64396
G1 X64.426 Y41.864 E22.23885
G1 X64.426 Y26.306 E23.01504
G1 X63.160 Y23.274 E23.17896
G1 X64.426 Y22.008 E23.26829
G1 X64.426 Y19.422 E23.39730
G1 X65.026 Y19.274 E23.42814
G1 X65.026 Y16.264 E23.57830
G0 F3000 X65.426 Y16.664
G1 F1200 X150.615 Y16.664 E27.82840
G1 X152.625 Y18.674 E27.97022
G1 X156.126 Y19.544 E28.15020
G1 X156.126 Y22.174 E28.28141
G1 X157.111 Y23.159 E28.35090
G1 X156.126 Y25.534 E28.47918
G1 X156.126 Y41.464 E29.27393
G1 X64.826 Y41.464 E33.82891
G1 X64.826 Y26.223 E34.58928
G1 X63.633 Y23.367 E34.74370
G1 X64.826 Y22.174 E34.82787
G1 X64.826 Y19.735 E34.94955
G1 X65.426 Y19.587 E34.98039
G1 X65.426 Y16.664 E35.12622
G0 F3000 X65.826 Y17.064
G1 F1200 X150.450 Y17.064 E39.34812
G1 X152.421 Y19.035 E39.48719
G1 X155.726 Y19.856 E39.65709
G1 X155.726 Y22.340 E39.78101
G1 X156.639 Y23.253 E39.84543
G1 X155.726 Y25.454 E39.96431
G1 X155.726 Y41.064 E40.74310
G1 X65.226 Y41.064 E45.25816
G1 X65.226 Y26.144 E46.00252
G1 X64.105 Y23.460 E46.14764
G1 X65.226 Y22.339 E46.22673
G1 X65.226 Y20.048 E46.34103
G1 X65.826 Y19.900 E46.37186
G1 X65.826 Y17.064 E46.51335
G0 F3000 X66.226 Y17.464
G1 F1200 X150.284 Y17.464 E50.70702
G1 X152.216 Y19.396 E50.84333
G1 X155.326 Y20.169 E51.00321
G1 X155.326 Y22.506 E51.11981
G1 X156.167 Y23.347 E51.17914
G1 X155.326 Y25.375 E51.28868
G1 X155.326 Y40.664 E52.05145
G1 X65.626 Y40.664 E56.52660
G1 X65.626 Y26.064 E57.25499
G1 X64.577 Y23.553 E57.39076
G1 X65.626 Y22.504 E57.46477
G1 X65.626 Y20.362 E57.57164
G1 X66.226 Y20.214 E57.60247
G1 X66.226 Y17.464 E57.73967
G0 F3000 X66.626 Y17.864
G1 F1200 X150.118 Y17.864 E61.90510
G1 X152.012 Y19.758 E62.03873
G1 X154.926 Y20.482 E62.18853
G1 X154.926 Y22.672 E62.29779
G1 X155.695 Y23.441 E62.35205
G1 X154.926 Y25.294 E62.45214
G1 X154.926 Y40.264 E63.19900
G1 X66.026 Y40.264 E67.63424
G1 X66.026 Y25.984 E68.34667
G1 X65.050 Y23.647 E68.47302
G1 X66.026 Y22.671 E68.54188
G1 X66.026 Y20.675 E68.64146
G1 X66.626 Y20.527 E68.67230
G1 X66.626 Y17.864 E68.80515
G0 F3000 X67.026 Y20.840
G1 F1200 X67.026 Y18.264 E68.93367
G1 X149.953 Y18.264 E73.07091
G1 X151.808 Y20.119 E73.20180
G1 X154.526 Y20.795 E73.34153
G1 X154.526 Y22.837 E73.44340
G1 X155.223 Y23.534 E73.49258
G1 X154.526 Y25.215 E73.58337
G1 X154.526 Y39.864 E74.31421
G1 X66.426 Y39.864 E78.70954
G1 X66.426 Y25.904 E79.40601
G1 X65.522 Y23.740 E79.52301
G1 X66.426 Y22.836 E79.58679
G1 X66.426 Y20.988 E79.67899
G1 X67.026 Y20.840 E79.70982
G0 F3000 X67.426 Y21.153
G1 F1200 X67.426 Y18.664 E79.83400
G1 X149.787 Y18.664 E83.94300
G1 X151.604 Y20.481 E84.07120
G1 X154.126 Y21.107 E84.20084
G1 X154.126 Y23.003 E84.29544
G1 X154.751 Y23.628 E84.33953
G1 X154.126 Y25.135 E84.42093
G1 X154.126 Y39.464 E85.13580
G1 X66.826 Y39.464 E89.49122
G1 X66.826 Y25.824 E90.17172
G1 X65.995 Y23.833 E90.27936
G1 X66.826 Y23.002 E90.33799
G1 X66.826 Y21.301 E90.42285
G1 X67.426 Y21.153 E90.45368
G0 F3000 X67.826 Y21.467
G1 F1200 X67.826 Y19.064 E90.57357
G1 X149.621 Y19.064 E94.65434
G1 X151.399 Y20.842 E94.77979
G1 X153.726 Y21.420 E94.89941
G1 X153.726 Y23.169 E94.98667
G1 X154.279 Y23.722 E95.02568
G1 X153.726 Y25.056 E95.09773
G1 X153.726 Y39.064 E95.79659
G1 X67.226 Y39.064 E100.11209
G1 X67.226 Y25.744 E100.77663
G1 X66.467 Y23.926 E100.87492
G1 X67.226 Y23.167 E100.92847
G1 X67.226 Y21.615 E101.00590
G1 X67.826 Y21.467 E101.03673
G0 F3000 X68.226 Y21.780
G1 F1200 X68.226 Y19.464 E101.15228
G1 X149.456 Y19.464 E105.20486
G1 X151.195 Y21.203 E105.32755
G1 X153.326 Y21.733 E105.43711
G1 X153.326 Y23.335 E105.51703
G1 X153.807 Y23.816 E105.55097
G1 X153.326 Y24.975 E105.61357
G1 X153.326 Y38.664 E106.29652
G1 X67.626 Y38.664 E110.57211
G1 X67.626 Y25.663 E111.22073
G1 X66.940 Y24.020 E111.30956
G1 X67.626 Y23.334 E111.35796
G1 X67.626 Y21.928 E111.42811
G1 X68.226 Y21.780 E111.45894
G0 F3000 X68.626 Y22.093
G1 F1200 X68.626 Y19.864 E111.57014
G1 X149.290 Y19.864 E115.59449
G1 X150.991 Y21.565 E115.71450
G1 X152.926 Y22.046 E115.81398
G1 X152.926 Y23.500 E115.88652
G1 X153.335 Y23.909 E115.91538
G1 X152.926 Y24.896 E115.96868
G1 X152.926 Y38.264 E116.63561
G1 X68.026 Y38.264 E120.87129
G1 X68.026 Y25.584 E121.50390
G1 X67.412 Y24.113 E121.58342
G1 X68.026 Y23.499 E121.62674
G1 X68.026 Y22.241 E121.68950
G1 X68.626 Y22.093 E121.72034
G0 F3000 X69.026 Y22.407
G1 F1200 X69.026 Y20.264 E121.82725
G1 X149.124 Y20.264 E125.82336
G1 X150.786 Y21.926 E125.94062
G1 X152.526 Y22.358 E126.03006
G1 X152.526 Y23.666 E126.09532
G1 X152.863 Y24.003 E126.11910
G1 X152.526 Y24.816 E126.16300
G1 X152.526 Y37.864 E126.81397
G1 X68.426 Y37.864 E131.00974
G1 X68.426 Y25.503 E131.62643
G1 X67.884 Y24.206 E131.69656
G1 X68.426 Y23.664 E131.73480
G1 X68.426 Y22.555 E131.79013
G1 X69.026 Y22.407 E131.82096
G0 F3000 X69.426 Y22.720
G1 F1200 X69.426 Y20.664 E131.92353
G1 X148.959 Y20.664 E135.89145
G1 X150.583 Y22.288 E136.00603
G1 X152.126 Y22.671 E136.08535
G1 X152.126 Y23.831 E136.14322
G1 X152.392 Y24.097 E136.16199
G1 X152.126 Y24.738 E136.19662
G1 X152.126 Y37.464 E136.83152
G1 X68.826 Y37.464 E140.98737
G1 X68.826 Y25.423 E141.58810
G1 X68.357 Y24.300 E141.64882
G1 X68.826 Y23.831 E141.68191
G1 X68.826 Y22.868 E141.72995
G1 X69.426 Y22.720 E141.76078
G0 F3000 X69.826 Y23.033
G1 F1200 X69.826 Y21.064 E141.85902
G1 X148.793 Y21.064 E145.79870
G1 X150.378 Y22.649 E145.91053
G1 X151.726 Y22.984 E145.97982
G1 X151.726 Y23.997 E146.03036
G1 X151.920 Y24.191 E146.04405
G1 X151.726 Y24.659 E146.06933
G1 X151.726 Y37.064 E146.68821
G1 X69.226 Y37.064 E150.80415
G1 X69.226 Y25.343 E151.38892
G1 X68.829 Y24.393 E151.44029
G1 X69.226 Y23.996 E151.46830
G1 X69.226 Y23.181 E151.50896
G1 X69.826 Y23.033 E151.53979
G0 F3000 X70.226 Y23.347
G1 F1200 X70.226 Y21.464 E151.63373
G1 X148.627 Y21.464 E155.54517
G1 X150.174 Y23.011 E155.65432
G1 X151.326 Y23.297 E155.71354
G1 X151.326 Y24.162 E155.75670
G1 X151.448 Y24.284 E155.76530
G1 X151.326 Y24.578 E155.78118
G1 X151.326 Y36.664 E156.38416
G1 X69.626 Y36.664 E160.46019
G1 X69.626 Y25.262 E161.02903
G1 X69.302 Y24.486 E161.07099
G1 X69.626 Y24.162 E161.09385
G1 X69.626 Y23.495 E161.12712
G1 X70.226 Y23.347 E161.15796
G0 F3000 X70.026 Y24.327
G1 F1200 X70.026 Y23.808 E161.18385
G1 X70.626 Y23.660 E161.21468
G1 X70.626 Y21.864 E161.30428
G1 X148.462 Y21.864 E165.18754
G1 X149.970 Y23.372 E165.29393
G1 X150.926 Y23.610 E165.34309
G1 X150.926 Y24.328 E165.37891
G1 X150.976 Y24.378 E165.38243
G1 X150.926 Y24.499 E165.38897
G1 X150.926 Y36.264 E165.97592
G1 X70.026 Y36.264 E170.01204
G1 X70.026 Y25.183 E170.56488
G1 X69.774 Y24.579 E170.59753
G1 X70.026 Y24.327 E170.61531
G0 F3000 X70.426 Y24.494
G1 F1200 X70.426 Y24.121 E170.63392
G1 X70.920 Y23.999 E170.65930
G1 X71.026 Y23.893 E170.66678
G1 X71.026 Y22.264 E170.74805
G1 X148.296 Y22.264 E174.60307
G1 X149.765 Y23.733 E174.70671
G1 X150.526 Y23.922 E174.74583
G1 X150.526 Y35.864 E175.34162
G1 X70.426 Y35.864 E179.33783
G1 X70.426 Y25.102 E179.87475
G1 X70.247 Y24.673 E179.89794
G1 X70.426 Y24.494 E179.91057
G0 F3000 X70.826 Y24.659
G1 F1200 X70.826 Y24.435 E179.92174
G1 X71.123 Y24.362 E179.93700
G1 X71.426 Y24.059 E179.95838
G1 X71.426 Y22.664 E180.02798
G1 X148.130 Y22.664 E183.85475
G1 X149.561 Y24.095 E183.95572
G1 X150.126 Y24.235 E183.98476
G1 X150.126 Y35.464 E184.54498
G1 X70.826 Y35.464 E188.50127
G1 X70.826 Y25.022 E189.02222
G1 X70.719 Y24.766 E189.03607
G1 X70.826 Y24.659 E189.04361
G0 F3000 X71.226 Y24.824
G1 F1200 X71.226 Y24.748 E189.04741
G1 X71.327 Y24.723 E189.05260
G1 X71.826 Y24.225 E189.08777
G1 X71.826 Y23.064 E189.14569
G1 X147.965 Y23.064 E192.94428
G1 X149.357 Y24.456 E193.04249
G1 X149.726 Y24.548 E193.06147
G1 X149.726 Y35.064 E193.58611
G1 X71.226 Y35.064 E197.50249
G1 X71.226 Y24.943 E198.00743
G1 X71.191 Y24.859 E198.01197
G1 X71.226 Y24.824 E198.01444
G0 F3000 X72.226 Y24.391
G1 F1200 X72.226 Y23.464 E198.06069
G1 X147.799 Y23.464 E201.83104
G1 X149.088 Y24.753 E201.92199
G1 X149.070 Y24.797 E201.92436
G1 X149.326 Y24.861 E201.93753
G1 X149.326 Y34.664 E202.42660
G1 X71.626 Y34.664 E206.30307
G1 X71.626 Y25.061 E206.78216
G1 X71.702 Y25.042 E206.78607
G1 X71.664 Y24.952 E206.79095
G1 X72.226 Y24.391 E206.83056
G0 F3000 X71.165 Y25.327
;TYPE:SUPPORT
G1 F1200 X149.785 Y25.327 E210.75293
G0 F3000 X149.026 Y25.327
G0 X149.026 Y27.993
G0 X149.785 Y27.993
G1 F1200 X71.165 Y27.993 E214.67530
G0 F3000 X71.926 Y27.993
G0 X71.926 Y30.659
G0 X71.165 Y30.659
G1 F1200 X149.785 Y30.659 E218.59767
G0 F3000 X149.026 Y30.659
G0 X149.026 Y33.325
G0 X149.785 Y33.325
G1 F1200 X71.165 Y33.325 E222.52003
G0 F3000 X71.926 Y33.325
G0 X73.315 Y34.364
G0 X73.315 Y35.124
G1 F1200 X73.315 Y23.004 E223.12470
G0 F3000 X73.315 Y23.764
G0 X75.981 Y23.764
G0 X75.981 Y23.004
G1 F1200 X75.981 Y35.124 E223.72937
G0 F3000 X75.981 Y34.364
G0 X78.647 Y34.364
G0 X78.647 Y35.124
G1 F1200 X78.647 Y23.004 E224.33404
G0 F3000 X78.647 Y23.764
G0 X81.313 Y23.764
G0 X81.313 Y23.004
G1 F1200 X81.313 Y35.124 E224.93871
G0 F3000 X81.313 Y34.364
G0 X83.979 Y34.364
G0 X83.979 Y35.124
G1 F1200 X83.979 Y23.004 E225.54338
G0 F3000 X83.979 Y23.764
G0 X86.645 Y23.764
G0 X86.645 Y23.004
G1 F1200 X86.645 Y35.124 E226.14805
G0 F3000 X86.645 Y34.364
G0 X89.311 Y34.364
G0 X89.311 Y35.124
G1 F1200 X89.311 Y23.004 E226.75272
G0 F3000 X89.311 Y23.764
G0 X91.977 Y23.764
G0 X91.977 Y23.004
G1 F1200 X91.977 Y35.124 E227.35739
G0 F3000 X91.977 Y34.364
G0 X94.643 Y34.364
G0 X94.643 Y35.124
G1 F1200 X94.643 Y23.004 E227.96206
G0 F3000 X94.643 Y23.764
G0 X97.309 Y23.764
G0 X97.309 Y23.004
G1 F1200 X97.309 Y35.124 E228.56673
G0 F3000 X97.309 Y34.364
G0 X99.975 Y34.364
G0 X99.975 Y35.124
G1 F1200 X99.975 Y23.004 E229.17140
G0 F3000 X99.975 Y23.764
G0 X102.641 Y23.764
G0 X102.641 Y23.004
G1 F1200 X102.641 Y35.124 E229.77606
G0 F3000 X102.641 Y34.364
G0 X105.307 Y34.364
G0 X105.307 Y35.124
G1 F1200 X105.307 Y23.004 E230.38073
G0 F3000 X105.307 Y23.764
G0 X107.973 Y23.764
G0 X107.973 Y23.004
G1 F1200 X107.973 Y35.124 E230.98540
G0 F3000 X107.973 Y34.364
G0 X110.639 Y34.364
G0 X110.639 Y35.124
G1 F1200 X110.639 Y23.004 E231.59007
G0 F3000 X110.639 Y23.764
G0 X113.305 Y23.764
G0 X113.305 Y23.004
G1 F1200 X113.305 Y35.124 E232.19474
G0 F3000 X113.305 Y34.364
G0 X115.971 Y34.364
G0 X115.971 Y35.124
G1 F1200 X115.971 Y23.004 E232.79941
G0 F3000 X115.971 Y23.764
G0 X118.637 Y23.764
G0 X118.637 Y23.004
G1 F1200 X118.637 Y35.124 E233.40408
G0 F3000 X118.637 Y34.364
G0 X121.303 Y34.364
G0 X121.303 Y35.124
G1 F1200 X121.303 Y23.004 E234.00875
G0 F3000 X121.303 Y23.764
G0 X123.969 Y23.764
G0 X123.969 Y23.004
G1 F1200 X123.969 Y35.124 E234.61342
G0 F3000 X123.969 Y34.364
G0 X126.635 Y34.364
G0 X126.635 Y35.124
G1 F1200 X126.635 Y23.004 E235.21809
G0 F3000 X126.635 Y23.764
G0 X129.301 Y23.764
G0 X129.301 Y23.004
G1 F1200 X129.301 Y35.124 E235.82276
G0 F3000 X129.301 Y34.364
G0 X131.967 Y34.364
G0 X131.967 Y35.124
G1 F1200 X131.967 Y23.004 E236.42743
G0 F3000 X131.967 Y23.764
G0 X134.633 Y23.764
G0 X134.633 Y23.004
G1 F1200 X134.633 Y35.124 E237.03210
G0 F3000 X134.633 Y34.364
G0 X137.299 Y34.364
G0 X137.299 Y35.124
G1 F1200 X137.299 Y23.004 E237.63676
G0 F3000 X137.299 Y23.764
G0 X139.965 Y23.764
G0 X139.965 Y23.004
G1 F1200 X139.965 Y35.124 E238.24143
G0 F3000 X139.965 Y34.364
G0 X142.631 Y34.364
G0 X142.631 Y35.124
G1 F1200 X142.631 Y23.004 E238.84610
G0 F3000 X142.631 Y23.764
G0 X145.297 Y23.764
G0 X145.297 Y23.004
G1 F1200 X145.297 Y35.124 E239.45077
G0 F3000 X145.297 Y34.364
G0 X147.963 Y34.364
G0 X147.963 Y35.124
G1 F1200 X147.963 Y23.004 E240.05544
;LAYER:1
G1 F4800 E234.05544
G0 F3000 X147.221 Y25.199 Z0.500
;TYPE:WALL-OUTER
G1 F4800 E240.05544
G1 F1380 X147.357 Y25.242 E240.06019
G1 X73.643 Y25.243 E242.51192
G1 X73.785 Y25.198 E242.51688
G1 X147.221 Y25.199 E244.95937
G0 F3000 X147.963 Y26.083
;TYPE:SUPPORT
G1 F1500 X147.963 Y34.524 E245.24012
G0 F3000 X147.963 Y34.364
G0 X145.297 Y34.364
G0 X145.297 Y34.524
G1 F1500 X145.297 Y26.083 E245.52087
G0 F3000 X145.296 Y26.242
G0 X142.630 Y26.242
G0 X142.631 Y26.083
G1 F1500 X142.631 Y34.524 E245.80162
G0 F3000 X142.631 Y34.364
G0 X139.965 Y34.364
G0 X139.965 Y34.524
G1 F1500 X139.965 Y26.083 E246.08236
G0 F3000 X139.964 Y26.242
G0 X137.298 Y26.242
G0 X137.299 Y26.083
G1 F1500 X137.299 Y34.524 E246.36311
G0 F3000 X137.299 Y34.364
G0 X134.633 Y34.364
G0 X134.633 Y34.524
G1 F1500 X134.633 Y26.083 E246.64386
G0 F3000 X134.632 Y26.242
G0 X131.966 Y26.242
G0 X131.967 Y26.083
G1 F1500 X131.967 Y34.524 E246.92461
G0 F3000 X131.967 Y34.364
G0 X129.301 Y34.364
G0 X129.301 Y34.524
G1 F1500 X129.301 Y26.083 E247.20536
G0 F3000 X129.300 Y26.242
G0 X126.634 Y26.242
G0 X126.635 Y26.083
G1 F1500 X126.635 Y34.524 E247.48611
G0 F3000 X126.635 Y34.364
G0 X123.969 Y34.364
G0 X123.969 Y34.524
G1 F1500 X123.969 Y26.083 E247.76686
G0 F3000 X123.968 Y26.242
G0 X121.302 Y26.242
G0 X121.303 Y26.083
G1 F1500 X121.303 Y34.524 E248.04761
G0 F3000 X121.303 Y34.364
G0 X118.637 Y34.364
G0 X118.637 Y34.524
G1 F1500 X118.637 Y26.083 E248.32835
G0 F3000 X118.636 Y26.242
G0 X115.970 Y26.242
G0 X115.971 Y26.083
G1 F1500 X115.971 Y34.524 E248.60910
G0 F3000 X115.971 Y34.364
G0 X113.305 Y34.364
G0 X113.305 Y34.524
G1 F1500 X113.305 Y26.083 E248.88985
G0 F3000 X113.304 Y26.242
G0 X110.638 Y26.242
G0 X110.639 Y26.083
G1 F1500 X110.639 Y34.524 E249.17060
G0 F3000 X110.639 Y34.364
G0 X107.973 Y34.364
G0 X107.973 Y34.524
G1 F1500 X107.973 Y26.083 E249.45135
G0 F3000 X107.972 Y26.242
G0 X105.306 Y26.242
G0 X105.307 Y26.083
G1 F1500 X105.307 Y34.524 E249.73210
G0 F3000 X105.307 Y34.364
G0 X102.641 Y34.364
G0 X102.641 Y34.524
G1 F1500 X102.641 Y26.083 E250.01285
G0 F3000 X102.640 Y26.242
G0 X99.974 Y26.242
G0 X99.975 Y26.083
G1 F1500 X99.975 Y34.524 E250.29360
G0 F3000 X99.975 Y34.364
G0 X97.309 Y34.364
G0 X97.309 Y34.524
G1 F1500 X97.309 Y26.083 E250.57435
G0 F3000 X97.308 Y26.242
G0 X94.642 Y26.242
G0 X94.643 Y26.083
G1 F1500 X94.643 Y34.524 E250.85509
G0 F3000 X94.643 Y34.364
G0 X91.977 Y34.364
G0 X91.977 Y34.524
G1 F1500 X91.977 Y26.083 E251.13584
G0 F3000 X91.976 Y26.242
G0 X89.310 Y26.242
G0 X89.311 Y26.083
G1 F1500 X89.311 Y34.524 E251.41659
G0 F3000 X89.311 Y34.364
G0 X86.645 Y34.364
G0 X86.645 Y34.524
G1 F1500 X86.645 Y26.083 E251.69734
G0 F3000 X86.644 Y26.242
G0 X83.978 Y26.242
G0 X83.979 Y26.083
G1 F1500 X83.979 Y34.524 E251.97809
G0 F3000 X83.979 Y34.364
G0 X81.313 Y34.364
G0 X81.313 Y34.524
G1 F1500 X81.313 Y26.083 E252.25884
G0 F3000 X81.312 Y26.242
G0 X78.646 Y26.242
G0 X78.647 Y26.083
G1 F1500 X78.647 Y34.524 E252.53959
G0 F3000 X78.647 Y34.364
G0 X75.981 Y34.364
G0 X75.981 Y34.524
G1 F1500 X75.981 Y26.083 E252.82034
G0 F3000 X75.980 Y26.242
G0 X73.314 Y26.242
G0 X73.315 Y26.083
G1 F1500 X73.315 Y34.524 E253.10108
;LAYER:2
G1 F4800 E247.10108
M104 S235
G0 F3000 X73.117 Y25.297 Z0.700
;TYPE:WALL-OUTER
G1 F4800 E253.10108
G1 F1620 X73.786 Y25.085 E253.12443
G1 X147.221 Y25.086 E255.56688
G1 X147.887 Y25.296 E255.59011
G1 X147.942 Y25.352 E255.59272
G1 X73.064 Y25.351 E258.08317
G1 X73.117 Y25.297 E258.08569
G0 F3000 X73.315 Y26.192
;TYPE:SUPPORT
G1 F1800 X73.315 Y34.524 E258.36281
G0 F3000 X73.315 Y34.364
G0 X75.981 Y34.364
G0 X75.981 Y34.524
G1 F1800 X75.981 Y26.192 E258.63994
G0 F3000 X75.980 Y26.351
G0 X78.646 Y26.351
G0 X78.647 Y26.192
G1 F1800 X78.647 Y34.524 E258.91706
G0 F3000 X78.647 Y34.364
G0 X81.313 Y34.364
G0 X81.313 Y34.524
G1 F1800 X81.313 Y26.192 E259.19418
G0 F3000 X81.312 Y26.351
G0 X83.978 Y26.351
G0 X83.979 Y26.192
G1 F1800 X83.979 Y34.524 E259.47131
G0 F3000 X83.979 Y34.364
G0 X86.645 Y34.364
G0 X86.645 Y34.524
G1 F1800 X86.645 Y26.192 E259.74843
G0 F3000 X86.644 Y26.351
G0 X89.310 Y26.351
G0 X89.311 Y26.192
G1 F1800 X89.311 Y34.524 E260.02555
G0 F3000 X89.311 Y34.364
G0 X91.977 Y34.364
G0 X91.977 Y34.524
G1 F1800 X91.977 Y26.192 E260.30268
G0 F3000 X91.976 Y26.351
G0 X94.642 Y26.351
G0 X94.643 Y26.192
G1 F1800 X94.643 Y34.524 E260.57980
G0 F3000 X94.643 Y34.364
G0 X97.309 Y34.364
G0 X97.309 Y34.524
G1 F1800 X97.309 Y26.192 E260.85692
G0 F3000 X97.308 Y26.351
G0 X99.974 Y26.351
G0 X99.975 Y26.192
G1 F1800 X99.975 Y34.524 E261.13405
G0 F3000 X99.975 Y34.364
G0 X102.641 Y34.364
G0 X102.641 Y34.524
G1 F1800 X102.641 Y26.192 E261.41117
G0 F3000 X102.640 Y26.351
G0 X105.306 Y26.351
G0 X105.307 Y26.192
G1 F1800 X105.307 Y34.524 E261.68829
G0 F3000 X105.307 Y34.364
G0 X107.973 Y34.364
G0 X107.973 Y34.524
G1 F1800 X107.973 Y26.192 E261.96542
G0 F3000 X107.972 Y26.351
G0 X110.638 Y26.351
G0 X110.639 Y26.192
G1 F1800 X110.639 Y34.524 E262.24254
G0 F3000 X110.639 Y34.364
G0 X113.305 Y34.364
G0 X113.305 Y34.524
G1 F1800 X113.305 Y26.192 E262.51967
G0 F3000 X113.304 Y26.351
G0 X115.970 Y26.351
G0 X115.971 Y26.192
G1 F1800 X115.971 Y34.524 E262.79679
G0 F3000 X115.971 Y34.364
G0 X118.637 Y34.364
G0 X118.637 Y34.524
G1 F1800 X118.637 Y26.192 E263.07391
G0 F3000 X118.636 Y26.351
G0 X121.302 Y26.351
G0 X121.303 Y26.192
G1 F1800 X121.303 Y34.524 E263.35104
G0 F3000 X121.303 Y34.364
G0 X123.969 Y34.364
G0 X123.969 Y34.524
G1 F1800 X123.969 Y26.192 E263.62816
G0 F3000 X123.968 Y26.351
G0 X126.634 Y26.351
G0 X126.635 Y26.192
G1 F1800 X126.635 Y34.524 E263.90528
G0 F3000 X126.635 Y34.364
G0 X129.301 Y34.364
G0 X129.301 Y34.524
G1 F1800 X129.301 Y26.192 E264.18241
G0 F3000 X129.300 Y26.351
G0 X131.966 Y26.351
G0 X131.967 Y26.192
G1 F1800 X131.967 Y34.524 E264.45953
G0 F3000 X131.967 Y34.364
G0 X134.633 Y34.364
G0 X134.633 Y34.524
G1 F1800 X134.633 Y26.192 E264.73665
G0 F3000 X134.632 Y26.351
G0 X137.298 Y26.351
G0 X137.299 Y26.192
G1 F1800 X137.299 Y34.524 E265.01378
G0 F3000 X137.299 Y34.364
G0 X139.965 Y34.364
G0 X139.965 Y34.524
G1 F1800 X139.965 Y26.192 E265.29090
G0 F3000 X139.964 Y26.351
G0 X142.630 Y26.351
G0 X142.631 Y26.192
G1 F1800 X142.631 Y34.524 E265.56802
G0 F3000 X142.631 Y34.364
G0 X145.297 Y34.364
G0 X145.297 Y34.524
G1 F1800 X145.297 Y26.192 E265.84515
G0 F3000 X145.296 Y26.351
G0 X147.962 Y26.351
G0 X147.963 Y26.192
G1 F1800 X147.963 Y34.524 E266.12227
;LAYER:3
G1 F4800 E260.12227
M104 S232
G0 F3000 X147.807 Y25.158 Z0.900
;TYPE:WALL-OUTER
G1 F4800 E266.12227
G1 F1860 X148.108 Y25.461 E266.13648
G1 X72.897 Y25.460 E268.63800
G1 X73.196 Y25.159 E268.65211
G1 X73.786 Y24.972 E268.67270
G1 X147.221 Y24.973 E271.11516
G1 X147.807 Y25.158 E271.13560
G0 F3000 X147.139 Y25.112
;TYPE:SKIN
G1 F2520 X146.751 Y25.216 E271.14538
G1 X146.185 Y25.216 E271.15513
G1 X145.620 Y25.216 E271.16490
G1 X145.054 Y25.216 E271.17464
G1 X144.488 Y25.216 E271.18438
G1 X143.922 Y25.216 E271.19412
G1 X143.357 Y25.216 E271.20389
G1 X142.791 Y25.216 E271.21364
G1 X142.225 Y25.216 E271.22338
G1 X141.660 Y25.216 E271.23315
G1 X141.094 Y25.216 E271.24289
G1 X140.528 Y25.216 E271.25264
G1 X139.963 Y25.216 E271.26241
G1 X139.397 Y25.216 E271.27215
G1 X138.831 Y25.216 E271.28189
G1 X138.266 Y25.216 E271.29166
G1 X137.700 Y25.216 E271.30140
G1 X137.134 Y25.216 E271.31115
G1 X136.569 Y25.216 E271.32092
G1 X136.003 Y25.216 E271.33066
G1 X135.437 Y25.216 E271.34040
G1 X134.872 Y25.216 E271.35017
G1 X134.306 Y25.216 E271.35992
G1 X133.740 Y25.216 E271.36966
G1 X133.174 Y25.216 E271.37940
G1 X132.609 Y25.216 E271.38917
G1 X132.043 Y25.216 E271.39891
G1 X131.477 Y25.216 E271.40866
G1 X130.912 Y25.216 E271.41843
G1 X130.346 Y25.216 E271.42817
G1 X129.780 Y25.216 E271.43791
G1 X129.215 Y25.216 E271.44768
G1 X128.649 Y25.216 E271.45743
G1 X128.083 Y25.216 E271.46717
G1 X127.518 Y25.216 E271.47694
G1 X126.952 Y25.216 E271.48668
G1 X126.386 Y25.216 E271.49642
G1 X125.821 Y25.216 E271.50620
G1 X125.255 Y25.216 E271.51594
G1 X124.689 Y25.216 E271.52568
G1 X124.124 Y25.216 E271.53545
G1 X123.558 Y25.216 E271.54519
G1 X122.992 Y25.216 E271.55494
G1 X122.426 Y25.216 E271.56468
G1 X121.861 Y25.216 E271.57445
G1 X121.295 Y25.216 E271.58419
G1 X120.729 Y25.216 E271.59393
G1 X120.164 Y25.216 E271.60371
G1 X119.598 Y25.216 E271.61345
G1 X119.032 Y25.216 E271.62319
G1 X118.467 Y25.216 E271.63296
G1 X117.901 Y25.216 E271.64270
G1 X117.335 Y25.216 E271.65245
G1 X116.770 Y25.216 E271.66222
G1 X116.204 Y25.216 E271.67196
G1 X115.638 Y25.216 E271.68170
G1 X115.073 Y25.216 E271.69147
G1 X114.507 Y25.216 E271.70122
G1 X113.941 Y25.216 E271.71096
G1 X113.375 Y25.216 E271.72070
G1 X112.810 Y25.216 E271.73047
G1 X112.244 Y25.216 E271.74021
G1 X111.678 Y25.216 E271.74996
G1 X111.113 Y25.216 E271.75973
G1 X110.547 Y25.216 E271.76947
G1 X109.981 Y25.216 E271.77921
G1 X109.416 Y25.216 E271.78898
G1 X108.850 Y25.216 E271.79873
G1 X108.284 Y25.216 E271.80847
G1 X107.719 Y25.216 E271.81824
G1 X107.153 Y25.216 E271.82798
G1 X106.587 Y25.216 E271.83772
G1 X106.022 Y25.216 E271.84750
G1 X105.456 Y25.216 E271.85724
G1 X104.890 Y25.216 E271.86698
G1 X104.325 Y25.216 E271.87675
G1 X103.759 Y25.216 E271.88649
G1 X103.193 Y25.216 E271.89624
G1 X102.627 Y25.216 E271.90598
G1 X102.062 Y25.216 E271.91575
G1 X101.496 Y25.216 E271.92549
G1 X100.930 Y25.216 E271.93523
G1 X100.365 Y25.216 E271.94501
G1 X99.799 Y25.216 E271.95475
G1 X99.233 Y25.216 E271.96449
G1 X98.668 Y25.216 E271.97426
G1 X98.102 Y25.216 E271.98400
G1 X97.536 Y25.216 E271.99375
G1 X96.971 Y25.216 E272.00352
G1 X96.405 Y25.216 E272.01326
G1 X95.839 Y25.216 E272.02300
G1 X95.274 Y25.216 E272.03277
G1 X94.708 Y25.216 E272.04252
G1 X94.142 Y25.216 E272.05226
G1 X93.576 Y25.216 E272.06200
G1 X93.011 Y25.216 E272.07177
G1 X92.445 Y25.216 E272.08151
G1 X91.879 Y25.216 E272.09126
G1 X91.314 Y25.216 E272.10103
G1 X90.748 Y25.216 E272.11077
G1 X90.182 Y25.216 E272.12051
G1 X89.617 Y25.216 E272.13028
G1 X89.051 Y25.216 E272.14003
G1 X88.485 Y25.216 E272.14977
G1 X87.920 Y25.216 E272.15954
G1 X87.354 Y25.216 E272.16928
G1 X86.788 Y25.216 E272.17902
G1 X86.223 Y25.216 E272.18880
G1 X85.657 Y25.216 E272.19854
G1 X85.091 Y25.216 E272.20828
G1 X84.526 Y25.216 E272.21805
G1 X83.960 Y25.216 E272.22779
G1 X83.394 Y25.216 E272.23754
G1 X82.828 Y25.216 E272.24728
G1 X82.263 Y25.216 E272.25705
G1 X81.697 Y25.216 E272.26679
G1 X81.131 Y25.216 E272.27653
G1 X80.566 Y25.216 E272.28631
G1 X80.000 Y25.216 E272.29605
G1 X79.434 Y25.216 E272.30579
G1 X78.869 Y25.216 E272.31556
G1 X78.303 Y25.216 E272.32530
G1 X77.737 Y25.216 E272.33505
G1 X77.172 Y25.216 E272.34482
G1 X76.606 Y25.216 E272.35456
G1 X76.040 Y25.216 E272.36430
G1 X75.475 Y25.216 E272.37407
G1 X74.909 Y25.216 E272.38382
G1 X74.343 Y25.216 E272.39356
G1 X73.957 Y25.320 E272.40685
G0 F3000 X73.315 Y26.301
;TYPE:SUPPORT
G1 F2100 X73.315 Y34.524 E272.68035
G0 F3000 X73.315 Y34.364
G0 X75.981 Y34.364
G0 X75.981 Y34.524
G1 F2100 X75.981 Y26.301 E272.95385
G0 F3000 X75.980 Y26.460
G0 X78.646 Y26.460
G0 X78.647 Y26.301
G1 F2100 X78.647 Y34.524 E273.22735
G0 F3000 X78.647 Y34.364
G0 X81.313 Y34.364
G0 X81.313 Y34.524
G1 F2100 X81.313 Y26.301 E273.50085
G0 F3000 X81.312 Y26.460
G0 X83.978 Y26.460
G0 X83.979 Y26.301
G1 F2100 X83.979 Y34.524 E273.77434
G0 F3000 X83.979 Y34.364
G0 X86.645 Y34.364
G0 X86.645 Y34.524
G1 F2100 X86.645 Y26.301 E274.04784
G0 F3000 X86.644 Y26.460
G0 X89.310 Y26.460
G0 X89.311 Y26.301
G1 F2100 X89.311 Y34.524 E274.32134
G0 F3000 X89.311 Y34.364
G0 X91.977 Y34.364
G0 X91.977 Y34.524
G1 F2100 X91.977 Y26.301 E274.59484
G0 F3000 X91.976 Y26.460
G0 X94.642 Y26.460
G0 X94.643 Y26.301
G1 F2100 X94.643 Y34.524 E274.86834
G0 F3000 X94.643 Y34.364
G0 X97.309 Y34.364
G0 X97.309 Y34.524
G1 F2100 X97.309 Y26.301 E275.14183
G0 F3000 X97.308 Y26.460
G0 X99.974 Y26.460
G0 X99.975 Y26.301
G1 F2100 X99.975 Y34.524 E275.41533
G0 F3000 X99.975 Y34.364
G0 X102.641 Y34.364
G0 X102.641 Y34.524
G1 F2100 X102.641 Y26.301 E275.68883
G0 F3000 X102.640 Y26.460
G0 X105.306 Y26.460
G0 X105.307 Y26.301
G1 F2100 X105.307 Y34.524 E275.96233
G0 F3000 X105.307 Y34.364
G0 X107.973 Y34.364
G0 X107.973 Y34.524
G1 F2100 X107.973 Y26.301 E276.23583
G0 F3000 X107.972 Y26.460
G0 X110.638 Y26.460
G0 X110.639 Y26.301
G1 F2100 X110.639 Y34.524 E276.50933
G0 F3000 X110.639 Y34.364
G0 X113.305 Y34.364
G0 X113.305 Y34.524
G1 F2100 X113.305 Y26.301 E276.78282
G0 F3000 X113.304 Y26.460
G0 X115.970 Y26.460
G0 X115.971 Y26.301
G1 F2100 X115.971 Y34.524 E277.05632
G0 F3000 X115.971 Y34.364
G0 X118.637 Y34.364
G0 X118.637 Y34.524
G1 F2100 X118.637 Y26.301 E277.32982
G0 F3000 X118.636 Y26.460
G0 X121.302 Y26.460
G0 X121.303 Y26.301
G1 F2100 X121.303 Y34.524 E277.60332
G0 F3000 X121.303 Y34.364
G0 X123.969 Y34.364
G0 X123.969 Y34.524
G1 F2100 X123.969 Y26.301 E277.87682
G0 F3000 X123.968 Y26.460
G0 X126.634 Y26.460
G0 X126.635 Y26.301
G1 F2100 X126.635 Y34.524 E278.15031
G0 F3000 X126.635 Y34.364
G0 X129.301 Y34.364
G0 X129.301 Y34.524
G1 F2100 X129.301 Y26.301 E278.42381
G0 F3000 X129.300 Y26.460
G0 X131.966 Y26.460
G0 X131.967 Y26.301
G1 F2100 X131.967 Y34.524 E278.69731
G0 F3000 X131.967 Y34.364
G0 X134.633 Y34.364
G0 X134.633 Y34.524
G1 F2100 X134.633 Y26.301 E278.97081
G0 F3000 X134.632 Y26.460
G0 X137.298 Y26.460
G0 X137.299 Y26.301
G1 F2100 X137.299 Y34.524 E279.24431
G0 F3000 X137.299 Y34.364
G0 X139.965 Y34.364
G0 X139.965 Y34.524
G1 F2100 X139.965 Y26.301 E279.51780
G0 F3000 X139.964 Y26.460
G0 X142.630 Y26.460
G0 X142.631 Y26.301
G1 F2100 X142.631 Y34.524 E279.79130
G0 F3000 X142.631 Y34.364
G0 X145.297 Y34.364
G0 X145.297 Y34.524
G1 F2100 X145.297 Y26.301 E280.06480
G0 F3000 X145.296 Y26.460
G0 X147.962 Y26.460
G0 X147.963 Y26.301
G1 F2100 X147.963 Y34.524 E280.33830
;LAYER:4
G1 F4800 E274.33830
M104 S229
G0 F3000 X148.271 Y25.568 Z1.100
;TYPE:WALL-OUTER
G1 F4800 E280.33830
G1 F2100 X75.389 Y25.569 E282.76236
G1 X75.271 Y25.567 E282.76629
G1 X75.071 Y25.568 E282.77294
G1 X74.852 Y25.567 E282.78022
G1 X72.732 Y25.569 E282.85074
G1 X73.277 Y25.019 E282.87649
G1 X73.784 Y24.859 E282.89417
G1 X147.221 Y24.860 E285.33670
G1 X147.727 Y25.019 E285.35434
G1 X148.271 Y25.568 E285.38004
G0 F3000 X147.851 Y25.380
;TYPE:SKIN
G1 X147.464 Y25.276 E285.39211
G1 X146.836 Y25.214 E285.41220
G1 X146.270 Y25.214 E285.43230
G1 X145.705 Y25.214 E285.45241
G1 X145.139 Y25.214 E285.47250
G1 X144.573 Y25.214 E285.49260
G1 X144.008 Y25.214 E285.51271
G1 X143.442 Y25.214 E285.53280
G1 X142.876 Y25.214 E285.55290
G1 X142.311 Y25.214 E285.57296
G1 X141.745 Y25.214 E285.59305
G1 X141.179 Y25.214 E285.61315
G1 X140.614 Y25.214 E285.63321
G1 X140.048 Y25.214 E285.65331
G1 X139.482 Y25.214 E285.67340
G1 X138.917 Y25.214 E285.69346
G1 X138.351 Y25.214 E285.71356
G1 X137.785 Y25.214 E285.73365
G1 X137.220 Y25.214 E285.75371
G1 X136.654 Y25.214 E285.77381
G1 X136.088 Y25.214 E285.79391
G1 X135.522 Y25.214 E285.81400
G1 X134.957 Y25.214 E285.83411
G1 X134.391 Y25.214 E285.85421
G1 X133.825 Y25.214 E285.87430
G1 X133.260 Y25.214 E285.89441
G1 X132.694 Y25.214 E285.91450
G1 X132.128 Y25.214 E285.93460
G1 X131.563 Y25.214 E285.95466
G1 X130.997 Y25.214 E285.97476
G1 X130.431 Y25.214 E285.99485
G1 X129.866 Y25.214 E286.01491
G1 X129.300 Y25.214 E286.03501
G1 X128.734 Y25.214 E286.05511
G1 X128.169 Y25.214 E286.07517
G1 X127.603 Y25.214 E286.09526
G1 X127.037 Y25.214 E286.11536
G1 X126.472 Y25.214 E286.13542
G1 X125.906 Y25.214 E286.15551
G1 X125.340 Y25.214 E286.17561
G1 X124.774 Y25.214 E286.19571
G1 X124.209 Y25.214 E286.21581
G1 X123.643 Y25.214 E286.23591
G1 X123.077 Y25.214 E286.25601
G1 X122.512 Y25.214 E286.27611
G1 X121.946 Y25.214 E286.29621
G1 X121.380 Y25.214 E286.31630
G1 X120.815 Y25.214 E286.33637
G1 X120.249 Y25.214 E286.35646
G1 X119.683 Y25.214 E286.37656
G1 X119.118 Y25.214 E286.39662
G1 X118.552 Y25.214 E286.41671
G1 X117.986 Y25.214 E286.43681
G1 X117.421 Y25.214 E286.45687
G1 X116.855 Y25.214 E286.47697
G1 X116.289 Y25.214 E286.49706
G1 X115.723 Y25.214 E286.51716
G1 X115.158 Y25.214 E286.53726
G1 X114.592 Y25.214 E286.55736
G1 X114.026 Y25.214 E286.57746
G1 X113.461 Y25.214 E286.59756
G1 X112.895 Y25.214 E286.61766
G1 X112.329 Y25.214 E286.63776
G1 X111.764 Y25.214 E286.65782
G1 X111.198 Y25.214 E286.67791
G1 X110.632 Y25.214 E286.69801
G1 X110.066 Y25.213 E286.71810
G1 X109.500 Y25.213 E286.73825
G1 X108.935 Y25.213 E286.75835
G1 X108.369 Y25.213 E286.77845
G1 X107.803 Y25.213 E286.79859
G1 X107.237 Y25.213 E286.81874
G1 X106.672 Y25.213 E286.83884
G1 X106.106 Y25.213 E286.85899
G1 X105.540 Y25.213 E286.87913
G1 X104.975 Y25.213 E286.89924
G1 X104.409 Y25.213 E286.91938
G1 X103.843 Y25.213 E286.93952
G1 X103.278 Y25.213 E286.95963
G1 X102.712 Y25.213 E286.97977
G1 X102.146 Y25.213 E286.99992
G1 X101.581 Y25.213 E287.02002
G1 X101.015 Y25.213 E287.04012
G1 X100.449 Y25.213 E287.06026
G1 X99.884 Y25.213 E287.08037
G1 X99.318 Y25.213 E287.10047
G1 X98.752 Y25.213 E287.12061
G1 X98.187 Y25.213 E287.14072
G1 X97.621 Y25.213 E287.16081
G1 X97.055 Y25.213 E287.18096
G1 X96.489 Y25.213 E287.20110
G1 X95.924 Y25.213 E287.22121
G1 X95.358 Y25.213 E287.24135
G1 X94.792 Y25.213 E287.26149
G1 X94.227 Y25.213 E287.28160
G1 X93.661 Y25.213 E287.30174
G1 X93.095 Y25.213 E287.32189
G1 X92.530 Y25.213 E287.34199
G1 X91.964 Y25.213 E287.36209
G1 X91.398 Y25.213 E287.38223
G1 X90.833 Y25.213 E287.40234
G1 X90.267 Y25.213 E287.42244
G1 X89.701 Y25.213 E287.44258
G1 X89.136 Y25.213 E287.46269
G1 X88.570 Y25.213 E287.48278
G1 X88.004 Y25.213 E287.50293
G1 X87.438 Y25.213 E287.52307
G1 X86.873 Y25.213 E287.54318
G1 X86.307 Y25.213 E287.56332
G1 X85.741 Y25.213 E287.58346
G1 X85.176 Y25.213 E287.60357
G1 X84.610 Y25.213 E287.62371
G1 X84.044 Y25.213 E287.64385
G1 X83.479 Y25.213 E287.66396
G1 X82.913 Y25.213 E287.68411
G1 X82.347 Y25.213 E287.70425
G1 X81.782 Y25.213 E287.72436
G1 X81.216 Y25.213 E287.74445
G1 X80.650 Y25.213 E287.76459
G1 X80.085 Y25.213 E287.78470
G1 X79.519 Y25.213 E287.80480
G1 X78.953 Y25.213 E287.82494
G1 X78.388 Y25.213 E287.84505
G1 X77.822 Y25.213 E287.86514
G1 X77.256 Y25.213 E287.88529
G1 X76.690 Y25.213 E287.90543
G1 X76.125 Y25.213 E287.92554
G1 X75.559 Y25.213 E287.94568
G1 X74.993 Y25.212 E287.96582
G1 X74.428 Y25.213 E287.98584
G1 X73.862 Y25.213 E288.00593
G1 X73.308 Y25.225 E288.02114
G1 X73.228 Y25.428 E288.02840
G0 X73.315 Y26.409
;TYPE:SUPPORT
G1 F2400 X73.315 Y34.524 E288.29830
G0 F3000 X73.315 Y34.364
G0 X75.981 Y34.364
G0 X75.981 Y34.524
G1 F2400 X75.981 Y26.409 E288.56821
G0 F3000 X75.981 Y26.569
G0 X78.647 Y26.569
G0 X78.647 Y26.409
G1 F2400 X78.647 Y34.524 E288.83811
G0 F3000 X78.647 Y34.364
G0 X81.313 Y34.364
G0 X81.313 Y34.524
G1 F2400 X81.313 Y26.409 E289.10802
G0 F3000 X81.313 Y26.569
G0 X83.979 Y26.569
G0 X83.979 Y26.409
G1 F2400 X83.979 Y34.524 E289.37793
G0 F3000 X83.979 Y34.364
G0 X86.645 Y34.364
G0 X86.645 Y34.524
G1 F2400 X86.645 Y26.409 E289.64783
G0 F3000 X86.645 Y26.569
G0 X89.311 Y26.569
G0 X89.311 Y26.409
G1 F2400 X89.311 Y34.524 E289.91774
G0 F3000 X89.311 Y34.364
G0 X91.977 Y34.364
G0 X91.977 Y34.524
G1 F2400 X91.977 Y26.409 E290.18764
G0 F3000 X91.977 Y26.569
G0 X94.643 Y26.569
G0 X94.643 Y26.409
G1 F2400 X94.643 Y34.524 E290.45755
G0 F3000 X94.643 Y34.364
G0 X97.309 Y34.364
G0 X97.309 Y34.524
G1 F2400 X97.309 Y26.409 E290.72746
G0 F3000 X97.309 Y26.569
G0 X99.975 Y26.569
G0 X99.975 Y26.409
G1 F2400 X99.975 Y34.524 E290.99736
G0 F3000 X99.975 Y34.364
G0 X102.641 Y34.364
G0 X102.641 Y34.524
G1 F2400 X102.641 Y26.409 E291.26727
G0 F3000 X102.641 Y26.569
G0 X105.307 Y26.569
G0 X105.307 Y26.409
G1 F2400 X105.307 Y34.524 E291.53717
G0 F3000 X105.307 Y34.364
G0 X107.973 Y34.364
G0 X107.973 Y34.524
G1 F2400 X107.973 Y26.409 E291.80708
G0 F3000 X107.973 Y26.569
G0 X110.639 Y26.568
G0 X110.639 Y26.408
G1 F2400 X110.639 Y34.524 E292.07702
G0 F3000 X110.639 Y34.364
G0 X113.305 Y34.364
G0 X113.305 Y34.524
G1 F2400 X113.305 Y26.408 E292.34696
G0 F3000 X113.305 Y26.568
G0 X115.971 Y26.568
G0 X115.971 Y26.408
G1 F2400 X115.971 Y34.524 E292.61690
G0 F3000 X115.971 Y34.364
G0 X118.637 Y34.364
G0 X118.637 Y34.524
G1 F2400 X118.637 Y26.408 E292.88684
G0 F3000 X118.637 Y26.568
G0 X121.303 Y26.568
G0 X121.303 Y26.408
G1 F2400 X121.303 Y34.524 E293.15678
G0 F3000 X121.303 Y34.364
G0 X123.969 Y34.364
G0 X123.969 Y34.524
G1 F2400 X123.969 Y26.408 E293.42672
G0 F3000 X123.969 Y26.568
G0 X126.635 Y26.568
G0 X126.635 Y26.408
G1 F2400 X126.635 Y34.524 E293.69665
G0 F3000 X126.635 Y34.364
G0 X129.301 Y34.364
G0 X129.301 Y34.524
G1 F2400 X129.301 Y26.408 E293.96659
G0 F3000 X129.301 Y26.568
G0 X131.967 Y26.568
G0 X131.967 Y26.408
G1 F2400 X131.967 Y34.524 E294.23653
G0 F3000 X131.967 Y34.364
G0 X134.633 Y34.364
G0 X134.633 Y34.524
G1 F2400 X134.633 Y26.408 E294.50647
G0 F3000 X134.633 Y26.568
G0 X137.299 Y26.568
G0 X137.299 Y26.408
G1 F2400 X137.299 Y34.524 E294.77641
G0 F3000 X137.299 Y34.364
G0 X139.965 Y34.364
G0 X139.965 Y34.524
G1 F2400 X139.965 Y26.408 E295.04635
G0 F3000 X139.965 Y26.568
G0 X142.631 Y26.568
G0 X142.631 Y26.408
G1 F2400 X142.631 Y34.524 E295.31629
G0 F3000 X142.631 Y34.364
G0 X145.297 Y34.364
G0 X145.297 Y34.524
G1 F2400 X145.297 Y26.408 E295.58623
G0 F3000 X145.297 Y26.568
G0 X147.963 Y26.568
G0 X147.963 Y26.408
G1 F2400 X147.963 Y34.524 E295.85617
;LAYER:5
G1 F4800 E289.85617
M104 S225
G0 F3000 X147.434 Y25.233 Z1.300
;TYPE:WALL-INNER
G1 F4800 E295.85617
G1 F2100 X147.478 Y25.277 E295.85824
G1 X73.527 Y25.278 E298.31786
G1 X73.573 Y25.232 E298.32002
G1 X73.845 Y25.146 E298.32951
G1 X147.161 Y25.147 E300.76801
G1 X147.434 Y25.233 E300.77753
G0 F3000 X147.221 Y24.747
;TYPE:WALL-OUTER
G1 F2100 X147.648 Y24.881 E300.79242
G1 X148.249 Y25.488 E300.82083
G1 X148.348 Y25.677 E300.82792
G1 X72.656 Y25.677 E303.34545
G1 X72.755 Y25.488 E303.35254
G1 X73.357 Y24.881 E303.38098
G1 X73.785 Y24.746 E303.39591
G1 X147.221 Y24.747 E305.83840
G1 F4800 E299.83840
G0 F3000 X147.963 Y26.517
;TYPE:SUPPORT
G1 F4800 E305.83840
G1 F2400 X147.963 Y34.524 E306.10471
G0 F3000 X147.963 Y34.364
G0 X145.297 Y34.364
G0 X145.297 Y34.524
G1 F2400 X145.297 Y26.517 E306.37102
G0 F3000 X145.297 Y26.677
G0 X142.631 Y26.677
G0 X142.631 Y26.517
G1 F2400 X142.631 Y34.524 E306.63734
G0 F3000 X142.631 Y34.364
G0 X139.965 Y34.364
G0 X139.965 Y34.524
G1 F2400 X139.965 Y26.517 E306.90365
G0 F3000 X139.965 Y26.677
G0 X137.299 Y26.677
G0 X137.299 Y26.517
G1 F2400 X137.299 Y34.524 E307.16997
G0 F3000 X137.299 Y34.364
G0 X134.633 Y34.364
G0 X134.633 Y34.524
G1 F2400 X134.633 Y26.517 E307.43628
G0 F3000 X134.633 Y26.677
G0 X131.967 Y26.677
G0 X131.967 Y26.517
G1 F2400 X131.967 Y34.524 E307.70259
G0 F3000 X131.967 Y34.364
G0 X129.301 Y34.364
G0 X129.301 Y34.524
G1 F2400 X129.301 Y26.517 E307.96891
G0 F3000 X129.301 Y26.677
G0 X126.635 Y26.677
G0 X126.635 Y26.517
G1 F2400 X126.635 Y34.524 E308.23522
G0 F3000 X126.635 Y34.364
G0 X123.969 Y34.364
G0 X123.969 Y34.524
G1 F2400 X123.969 Y26.517 E308.50154
G0 F3000 X123.969 Y26.677
G0 X121.303 Y26.677
G0 X121.303 Y26.517
G1 F2400 X121.303 Y34.524 E308.76785
G0 F3000 X121.303 Y34.364
G0 X118.637 Y34.364
G0 X118.637 Y34.524
G1 F2400 X118.637 Y26.517 E309.03416
G0 F3000 X118.637 Y26.677
G0 X115.971 Y26.677
G0 X115.971 Y26.517
G1 F2400 X115.971 Y34.524 E309.30048
G0 F3000 X115.971 Y34.364
G0 X113.305 Y34.364
G0 X113.305 Y34.524
G1 F2400 X113.305 Y26.517 E309.56679
G0 F3000 X113.305 Y26.677
G0 X110.639 Y26.677
G0 X110.639 Y26.517
G1 F2400 X110.639 Y34.524 E309.83311
G0 F3000 X110.639 Y34.364
G0 X107.973 Y34.364
G0 X107.973 Y34.524
G1 F2400 X107.973 Y26.518 E310.09939
G0 F3000 X107.973 Y26.677
G0 X105.307 Y26.677
G0 X105.307 Y26.518
G1 F2400 X105.307 Y34.524 E310.36567
G0 F3000 X105.307 Y34.364
G0 X102.641 Y34.364
G0 X102.641 Y34.524
G1 F2400 X102.641 Y26.518 E310.63195
G0 F3000 X102.641 Y26.677
G0 X99.975 Y26.677
G0 X99.975 Y26.518
G1 F2400 X99.975 Y34.524 E310.89823
G0 F3000 X99.975 Y34.364
G0 X97.309 Y34.364
G0 X97.309 Y34.524
G1 F2400 X97.309 Y26.518 E311.16451
G0 F3000 X97.309 Y26.677
G0 X94.643 Y26.677
G0 X94.643 Y26.518
G1 F2400 X94.643 Y34.524 E311.43079
G0 F3000 X94.643 Y34.364
G0 X91.977 Y34.364
G0 X91.977 Y34.524
G1 F2400 X91.977 Y26.518 E311.69707
G0 F3000 X91.977 Y26.677
G0 X89.311 Y26.677
G0 X89.311 Y26.518
G1 F2400 X89.311 Y34.524 E311.96335
G0 F3000 X89.311 Y34.364
G0 X86.645 Y34.364
G0 X86.645 Y34.524
G1 F2400 X86.645 Y26.518 E312.22963
G0 F3000 X86.645 Y26.677
G0 X83.979 Y26.677
G0 X83.979 Y26.518
G1 F2400 X83.979 Y34.524 E312.49591
G0 F3000 X83.979 Y34.364
G0 X81.313 Y34.364
G0 X81.313 Y34.524
G1 F2400 X81.313 Y26.518 E312.76219
G0 F3000 X81.313 Y26.677
G0 X78.647 Y26.677
G0 X78.647 Y26.518
G1 F2400 X78.647 Y34.524 E313.02847
G0 F3000 X78.647 Y34.364
G0 X75.981 Y34.364
G0 X75.981 Y34.524
G1 F2400 X75.981 Y26.518 E313.29475
G0 F3000 X75.981 Y26.677
G0 X73.315 Y26.678
G0 X73.315 Y26.518
G1 F2400 X73.315 Y34.524 E313.56103
;LAYER:6
G1 F4800 E307.56103
M104 S222
G0 F3000 X73.651 Y25.095 Z1.500
;TYPE:WALL-INNER
G1 F4800 E313.56103
G1 F2100 X73.847 Y25.032 E313.56788
G1 X147.159 Y25.033 E316.00625
G1 X147.354 Y25.095 E316.01305
G1 X147.642 Y25.385 E316.02665
G1 X145.819 Y25.386 E316.08728
G1 X145.247 Y25.385 E316.10631
G1 X73.362 Y25.385 E318.49721
G1 X73.651 Y25.095 E318.51083
G0 F3000 X73.786 Y24.632
;TYPE:WALL-OUTER
G1 F2100 X147.220 Y24.633 E320.95325
G1 X147.568 Y24.743 E320.96539
G1 X148.065 Y25.244 E320.98886
G1 X148.348 Y25.785 E321.00917
G1 X72.656 Y25.785 E323.52670
G1 X72.939 Y25.244 E323.54700
G1 X73.437 Y24.743 E323.57050
G1 X73.786 Y24.632 E323.58268
G1 F4800 E317.58268
G0 F3000 X73.315 Y26.624
;TYPE:SUPPORT
G1 F4800 E323.58268
G1 F2400 X73.315 Y34.524 E323.84543
G0 F3000 X73.315 Y34.364
G0 X75.981 Y34.364
G0 X75.981 Y34.524
G1 F2400 X75.981 Y26.624 E324.10819
G0 F3000 X75.981 Y26.785
G0 X78.647 Y26.785
G0 X78.647 Y26.624
G1 F2400 X78.647 Y34.524 E324.37094
G0 F3000 X78.647 Y34.364
G0 X81.313 Y34.364
G0 X81.313 Y34.524
G1 F2400 X81.313 Y26.624 E324.63370
G0 F3000 X81.313 Y26.785
G0 X83.979 Y26.785
G0 X83.979 Y26.624
G1 F2400 X83.979 Y34.524 E324.89645
G0 F3000 X83.979 Y34.364
G0 X86.645 Y34.364
G0 X86.645 Y34.524
G1 F2400 X86.645 Y26.624 E325.15921
G0 F3000 X86.645 Y26.785
G0 X89.311 Y26.785
G0 X89.311 Y26.624
G1 F2400 X89.311 Y34.524 E325.42196
G0 F3000 X89.311 Y34.364
G0 X91.977 Y34.364
G0 X91.977 Y34.524
G1 F2400 X91.977 Y26.624 E325.68472
G0 F3000 X91.977 Y26.785
G0 X94.643 Y26.785
G0 X94.643 Y26.624
G1 F2400 X94.643 Y34.524 E325.94747
G0 F3000 X94.643 Y34.364
G0 X97.309 Y34.364
G0 X97.309 Y34.524
G1 F2400 X97.309 Y26.624 E326.21023
G0 F3000 X97.309 Y26.785
G0 X99.975 Y26.785
G0 X99.975 Y26.624
G1 F2400 X99.975 Y34.524 E326.47298
G0 F3000 X99.975 Y34.364
G0 X102.641 Y34.364
G0 X102.641 Y34.524
G1 F2400 X102.641 Y26.624 E326.73574
G0 F3000 X102.641 Y26.785
G0 X105.307 Y26.785
G0 X105.307 Y26.624
G1 F2400 X105.307 Y34.524 E326.99850
G0 F3000 X105.307 Y34.364
G0 X107.973 Y34.364
G0 X107.973 Y34.524
G1 F2400 X107.973 Y26.624 E327.26125
G0 F3000 X107.973 Y26.785
G0 X110.639 Y26.785
G0 X110.639 Y26.624
G1 F2400 X110.639 Y34.524 E327.52401
G0 F3000 X110.639 Y34.364
G0 X113.305 Y34.364
G0 X113.305 Y34.524
G1 F2400 X113.305 Y26.624 E327.78676
G0 F3000 X113.305 Y26.785
G0 X115.971 Y26.785
G0 X115.971 Y26.624
G1 F2400 X115.971 Y34.524 E328.04952
G0 F3000 X115.971 Y34.364
G0 X118.637 Y34.364
G0 X118.637 Y34.524
G1 F2400 X118.637 Y26.624 E328.31227
G0 F3000 X118.637 Y26.785
G0 X121.303 Y26.785
G0 X121.303 Y26.624
G1 F2400 X121.303 Y34.524 E328.57503
G0 F3000 X121.303 Y34.364
G0 X123.969 Y34.364
G0 X123.969 Y34.524
G1 F2400 X123.969 Y26.624 E328.83778
G0 F3000 X123.969 Y26.785
G0 X126.635 Y26.785
G0 X126.635 Y26.624
G1 F2400 X126.635 Y34.524 E329.10054
G0 F3000 X126.635 Y34.364
G0 X129.301 Y34.364
G0 X129.301 Y34.524
G1 F2400 X129.301 Y26.624 E329.36329
G0 F3000 X129.301 Y26.785
G0 X131.967 Y26.785
G0 X131.967 Y26.624
G1 F2400 X131.967 Y34.524 E329.62605
G0 F3000 X131.967 Y34.364
G0 X134.633 Y34.364
G0 X134.633 Y34.524
G1 F2400 X134.633 Y26.624 E329.88880
G0 F3000 X134.633 Y26.785
G0 X137.299 Y26.785
G0 X137.299 Y26.624
G1 F2400 X137.299 Y34.524 E330.15156
G0 F3000 X137.299 Y34.364
G0 X139.965 Y34.364
G0 X139.965 Y34.524
G1 F2400 X139.965 Y26.624 E330.41431
G0 F3000 X139.965 Y26.785
G0 X142.631 Y26.785
G0 X142.631 Y26.624
G1 F2400 X142.631 Y34.524 E330.67707
G0 F3000 X142.631 Y34.364
G0 X145.297 Y34.364
G0 X145.297 Y34.524
G1 F2400 X145.297 Y26.624 E330.93982
G0 F3000 X145.296 Y26.785
G0 X147.963 Y26.785
G0 X147.963 Y26.624
G1 F2400 X147.963 Y34.524 E331.20258
;LAYER:7
G1 F4800 E325.20258
M104 S219
G0 F3000 X147.553 Y25.237 Z1.700
;TYPE:WALL-INNER
G1 F4800 E331.20258
G1 F2100 X147.687 Y25.494 E331.21222
G1 X76.366 Y25.494 E333.58436
G1 X75.862 Y25.493 E333.60113
G1 X73.382 Y25.495 E333.68361
G1 X73.316 Y25.495 E333.68581
G1 X73.451 Y25.237 E333.69549
G1 X73.730 Y24.956 E333.70866
G1 X73.846 Y24.919 E333.71271
G1 X147.161 Y24.920 E336.15118
G1 X147.274 Y24.955 E336.15511
G1 X147.553 Y25.237 E336.16831
G0 F3000 X147.881 Y25.001
;TYPE:WALL-OUTER
G1 F2100 X148.348 Y25.894 E336.20182
G1 X72.656 Y25.894 E338.71935
G1 X73.123 Y25.001 E338.75287
G1 X73.516 Y24.604 E338.77145
G1 X73.785 Y24.519 E338.78083
G1 X147.221 Y24.520 E341.22332
G1 X147.488 Y24.604 E341.23263
G1 X147.881 Y25.001 E341.25121
G0 F3000 X147.326 Y25.207
;TYPE:FILL
G1 F2400 X147.230 Y25.303 E341.25573
G0 F3000 X146.264 Y25.138
G1 F2400 X146.099 Y25.303 E341.26349
G0 F3000 X145.132 Y25.138
G1 F2400 X144.968 Y25.303 E341.27123
G0 F3000 X144.001 Y25.138
G1 F2400 X143.836 Y25.303 E341.27899
G0 F3000 X142.870 Y25.138
G1 F2400 X142.705 Y25.303 E341.28675
G0 F3000 X141.738 Y25.138
G1 F2400 X141.574 Y25.303 E341.29448
G0 F3000 X140.607 Y25.138
G1 F2400 X140.442 Y25.303 E341.30225
G0 F3000 X139.476 Y25.138
G1 F2400 X139.311 Y25.303 E341.31001
G0 F3000 X138.344 Y25.138
G1 F2400 X138.179 Y25.303 E341.31777
G0 F3000 X137.213 Y25.138
G1 F2400 X137.048 Y25.303 E341.32553
G0 F3000 X136.081 Y25.138
G1 F2400 X135.917 Y25.303 E341.33327
G0 F3000 X134.950 Y25.138
G1 F2400 X134.785 Y25.303 E341.34103
G0 F3000 X133.819 Y25.138
G1 F2400 X133.654 Y25.303 E341.34879
G0 F3000 X132.687 Y25.138
G1 F2400 X132.523 Y25.303 E341.35653
G0 F3000 X131.556 Y25.138
G1 F2400 X131.391 Y25.303 E341.36429
G0 F3000 X130.425 Y25.138
G1 F2400 X130.260 Y25.303 E341.37205
G0 F3000 X129.293 Y25.138
G1 F2400 X129.129 Y25.303 E341.37979
G0 F3000 X128.162 Y25.138
G1 F2400 X127.997 Y25.303 E341.38755
G0 F3000 X127.031 Y25.138
G1 F2400 X126.866 Y25.303 E341.39531
G0 F3000 X125.899 Y25.138
G1 F2400 X125.734 Y25.303 E341.40307
G0 F3000 X124.768 Y25.138
G1 F2400 X124.603 Y25.303 E341.41083
G0 F3000 X123.636 Y25.138
G1 F2400 X123.472 Y25.303 E341.41857
G0 F3000 X122.505 Y25.138
G1 F2400 X122.340 Y25.303 E341.42633
G0 F3000 X121.374 Y25.138
G1 F2400 X121.209 Y25.303 E341.43409
G0 F3000 X120.242 Y25.138
G1 F2400 X120.078 Y25.303 E341.44183
G0 F3000 X119.111 Y25.138
G1 F2400 X118.946 Y25.303 E341.44959
G0 F3000 X117.980 Y25.138
G1 F2400 X117.815 Y25.303 E341.45735
G0 F3000 X116.848 Y25.138
G1 F2400 X116.683 Y25.303 E341.46511
G0 F3000 X115.717 Y25.138
G1 F2400 X115.552 Y25.303 E341.47287
G0 F3000 X114.585 Y25.138
G1 F2400 X114.421 Y25.303 E341.48061
G0 F3000 X113.454 Y25.138
G1 F2400 X113.289 Y25.303 E341.48837
G0 F3000 X112.323 Y25.138
G1 F2400 X112.158 Y25.303 E341.49613
G0 F3000 X111.191 Y25.138
G1 F2400 X111.027 Y25.303 E341.50387
G0 F3000 X110.061 Y25.137
G1 F2400 X109.895 Y25.303 E341.51168
G0 F3000 X108.929 Y25.137
G1 F2400 X108.764 Y25.303 E341.51946
G0 F3000 X107.798 Y25.137
G1 F2400 X107.632 Y25.303 E341.52727
G0 F3000 X106.667 Y25.137
G1 F2400 X106.501 Y25.303 E341.53508
G0 F3000 X105.535 Y25.137
G1 F2400 X105.370 Y25.303 E341.54286
G0 F3000 X104.404 Y25.137
G1 F2400 X104.238 Y25.303 E341.55067
G0 F3000 X103.272 Y25.137
G1 F2400 X103.107 Y25.303 E341.55846
G0 F3000 X102.141 Y25.137
G1 F2400 X101.976 Y25.303 E341.56624
G0 F3000 X101.010 Y25.137
G1 F2400 X100.844 Y25.303 E341.57405
G0 F3000 X99.878 Y25.137
G1 F2400 X99.713 Y25.303 E341.58183
G0 F3000 X98.747 Y25.137
G1 F2400 X98.581 Y25.303 E341.58964
G0 F3000 X97.616 Y25.137
G1 F2400 X97.450 Y25.303 E341.59745
G0 F3000 X96.484 Y25.137
G1 F2400 X96.319 Y25.303 E341.60523
G0 F3000 X95.353 Y25.137
G1 F2400 X95.187 Y25.303 E341.61304
G0 F3000 X94.221 Y25.137
G1 F2400 X94.056 Y25.303 E341.62083
G0 F3000 X93.090 Y25.137
G1 F2400 X92.925 Y25.303 E341.62861
G0 F3000 X91.959 Y25.137
G1 F2400 X91.793 Y25.303 E341.63642
G0 F3000 X90.827 Y25.137
G1 F2400 X90.662 Y25.303 E341.64421
G0 F3000 X89.696 Y25.137
G1 F2400 X89.531 Y25.303 E341.65199
G0 F3000 X88.565 Y25.137
G1 F2400 X88.399 Y25.303 E341.65980
G0 F3000 X87.433 Y25.137
G1 F2400 X87.268 Y25.303 E341.66758
G0 F3000 X86.302 Y25.137
G1 F2400 X86.136 Y25.303 E341.67539
G0 F3000 X85.171 Y25.137
G1 F2400 X85.005 Y25.303 E341.68320
G0 F3000 X84.039 Y25.137
G1 F2400 X83.874 Y25.303 E341.69098
G0 F3000 X82.908 Y25.137
G1 F2400 X82.742 Y25.303 E341.69879
G0 F3000 X81.776 Y25.137
G1 F2400 X81.611 Y25.303 E341.70658
G0 F3000 X80.645 Y25.137
G1 F2400 X80.480 Y25.303 E341.71436
G0 F3000 X79.514 Y25.137
G1 F2400 X79.348 Y25.303 E341.72217
G0 F3000 X78.382 Y25.137
G1 F2400 X78.217 Y25.303 E341.72995
G0 F3000 X77.251 Y25.137
G1 F2400 X77.085 Y25.303 E341.73776
G0 F3000 X76.120 Y25.137
G1 F2400 X75.954 Y25.303 E341.74557
G0 F3000 X74.988 Y25.137
G1 F2400 X74.823 Y25.303 E341.75335
G0 F3000 X73.857 Y25.137
G1 F2400 X73.807 Y25.328 E341.76115
G1 X74.353 Y25.206 E341.77502
G1 X74.919 Y25.206 E341.78885
G1 X75.485 Y25.206 E341.80269
G1 X76.050 Y25.206 E341.81655
G1 X76.616 Y25.206 E341.83038
G1 X77.182 Y25.206 E341.84422
G1 X77.747 Y25.206 E341.85808
G1 X78.313 Y25.206 E341.87192
G1 X78.879 Y25.206 E341.88575
G1 X79.444 Y25.206 E341.89961
G1 X80.010 Y25.206 E341.91345
G1 X80.576 Y25.206 E341.92729
G1 X81.141 Y25.206 E341.94114
G1 X81.707 Y25.206 E341.95498
G1 X82.273 Y25.206 E341.96882
G1 X82.838 Y25.206 E341.98268
G1 X83.404 Y25.206 E341.99651
G1 X83.970 Y25.206 E342.01035
G1 X84.535 Y25.206 E342.02421
G1 X85.101 Y25.206 E342.03805
G1 X85.667 Y25.206 E342.05188
G1 X86.233 Y25.206 E342.06572
G1 X86.798 Y25.206 E342.07958
G1 X87.364 Y25.206 E342.09341
G1 X87.930 Y25.206 E342.10725
G1 X88.495 Y25.206 E342.12111
G1 X89.061 Y25.206 E342.13495
G1 X89.627 Y25.206 E342.14878
G1 X90.192 Y25.206 E342.16264
G1 X90.758 Y25.206 E342.17648
G1 X91.324 Y25.206 E342.19031
G1 X91.889 Y25.206 E342.20417
G1 X92.455 Y25.206 E342.21801
G1 X93.021 Y25.206 E342.23185
G1 X93.586 Y25.206 E342.24571
G1 X94.152 Y25.206 E342.25954
G1 X94.718 Y25.206 E342.27338
G1 X95.283 Y25.206 E342.28724
G1 X95.849 Y25.206 E342.30107
G1 X96.415 Y25.206 E342.31491
G1 X96.981 Y25.206 E342.32875
G1 X97.546 Y25.206 E342.34261
G1 X98.112 Y25.206 E342.35644
G1 X98.678 Y25.206 E342.37028
G1 X99.243 Y25.206 E342.38414
G1 X99.809 Y25.206 E342.39798
G1 X100.375 Y25.206 E342.41181
G1 X100.940 Y25.206 E342.42567
G1 X101.506 Y25.206 E342.43951
G1 X102.072 Y25.206 E342.45334
G1 X102.637 Y25.206 E342.46720
G1 X103.203 Y25.206 E342.48104
G1 X103.769 Y25.206 E342.49488
G1 X104.334 Y25.206 E342.50874
G1 X104.900 Y25.206 E342.52257
G1 X105.466 Y25.206 E342.53641
G1 X106.032 Y25.206 E342.55025
G1 X106.597 Y25.206 E342.56410
G1 X107.163 Y25.206 E342.57794
G1 X107.729 Y25.206 E342.59178
G1 X108.294 Y25.206 E342.60564
G1 X108.860 Y25.206 E342.61947
G1 X109.426 Y25.206 E342.63331
G1 X109.991 Y25.206 E342.64717
G1 X110.557 Y25.206 E342.66101
G1 X111.123 Y25.206 E342.67484
G1 X111.688 Y25.206 E342.68870
G1 X112.254 Y25.206 E342.70254
G1 X112.820 Y25.206 E342.71637
G1 X113.385 Y25.206 E342.73023
G1 X113.951 Y25.206 E342.74407
G1 X114.517 Y25.206 E342.75791
G1 X115.082 Y25.206 E342.77177
G1 X115.648 Y25.206 E342.78560
G1 X116.214 Y25.206 E342.79944
G1 X116.780 Y25.206 E342.81327
G1 X117.345 Y25.206 E342.82713
G1 X117.911 Y25.206 E342.84097
G1 X118.477 Y25.206 E342.85481
G1 X119.042 Y25.206 E342.86867
G1 X119.608 Y25.206 E342.88250
G1 X120.174 Y25.206 E342.89634
G1 X120.739 Y25.206 E342.91020
G1 X121.305 Y25.206 E342.92403
G1 X121.871 Y25.206 E342.93787
G1 X122.436 Y25.206 E342.95173
G1 X123.002 Y25.206 E342.96557
G1 X123.568 Y25.206 E342.97940
G1 X124.133 Y25.206 E342.99326
G1 X124.699 Y25.206 E343.00710
G1 X125.265 Y25.206 E343.02094
G1 X125.831 Y25.206 E343.03477
G1 X126.396 Y25.206 E343.04863
G1 X126.962 Y25.206 E343.06247
G1 X127.528 Y25.206 E343.07630
G1 X128.093 Y25.206 E343.09016
G1 X128.659 Y25.206 E343.10400
G1 X129.225 Y25.206 E343.11784
G1 X129.790 Y25.206 E343.13170
G1 X130.356 Y25.206 E343.14553
G1 X130.922 Y25.206 E343.15937
G1 X131.487 Y25.206 E343.17323
G1 X132.053 Y25.206 E343.18706
G1 X132.619 Y25.206 E343.20090
G1 X133.184 Y25.206 E343.21476
G1 X133.750 Y25.206 E343.22860
G1 X134.316 Y25.206 E343.24243
G1 X134.881 Y25.206 E343.25629
G1 X135.447 Y25.206 E343.27013
G1 X136.013 Y25.206 E343.28397
G1 X136.579 Y25.206 E343.29780
G1 X137.144 Y25.206 E343.31166
G1 X137.710 Y25.206 E343.32550
G1 X138.276 Y25.206 E343.33933
G1 X138.841 Y25.206 E343.35319
G1 X139.407 Y25.206 E343.36703
G1 X139.973 Y25.206 E343.38087
G1 X140.538 Y25.206 E343.39473
G1 X141.104 Y25.206 E343.40856
G1 X141.670 Y25.206 E343.42240
G1 X142.235 Y25.206 E343.43626
G1 X142.801 Y25.206 E343.45009
G1 X143.367 Y25.206 E343.46393
G1 X143.932 Y25.206 E343.47779
G1 X144.498 Y25.206 E343.49163
G1 X145.064 Y25.206 E343.50546
G1 X145.629 Y25.206 E343.51932
G1 X146.195 Y25.206 E343.53316
G1 X146.761 Y25.206 E343.54699
G1 X147.179 Y25.071 E343.56160
G1 F4800 E337.56160
G0 F3000 X147.963 Y26.734
;TYPE:SUPPORT
G1 F4800 E343.56160
G1 F2400 X147.963 Y34.524 E343.82070
G0 F3000 X147.963 Y34.364
G0 X145.297 Y34.364
G0 X145.297 Y34.524
G1 F2400 X145.297 Y26.734 E344.07980
G0 F3000 X145.296 Y26.893
G0 X142.631 Y26.894
G0 X142.631 Y26.734
G1 F2400 X142.631 Y34.524 E344.33889
G0 F3000 X142.631 Y34.364
G0 X139.965 Y34.364
G0 X139.965 Y34.524
G1 F2400 X139.965 Y26.734 E344.59799
G0 F3000 X139.965 Y26.894
G0 X137.299 Y26.894
G0 X137.299 Y26.734
G1 F2400 X137.299 Y34.524 E344.85709
G0 F3000 X137.299 Y34.364
G0 X134.633 Y34.364
G0 X134.633 Y34.524
G1 F2400 X134.633 Y26.734 E345.11618
G0 F3000 X134.633 Y26.894
G0 X131.967 Y26.894
G0 X131.967 Y26.734
G1 F2400 X131.967 Y34.524 E345.37528
G0 F3000 X131.967 Y34.364
G0 X129.301 Y34.364
G0 X129.301 Y34.524
G1 F2400 X129.301 Y26.734 E345.63438
G0 F3000 X129.301 Y26.894
G0 X126.635 Y26.894
G0 X126.635 Y26.734
G1 F2400 X126.635 Y34.524 E345.89347
G0 F3000 X126.635 Y34.364
G0 X123.969 Y34.364
G0 X123.969 Y34.524
G1 F2400 X123.969 Y26.734 E346.15257
G0 F3000 X123.969 Y26.894
G0 X121.303 Y26.894
G0 X121.303 Y26.734
G1 F2400 X121.303 Y34.524 E346.41167
G0 F3000 X121.303 Y34.364
G0 X118.637 Y34.364
G0 X118.637 Y34.524
G1 F2400 X118.637 Y26.734 E346.67076
G0 F3000 X118.637 Y26.894
G0 X115.971 Y26.894
G0 X115.971 Y26.734
G1 F2400 X115.971 Y34.524 E346.92986
G0 F3000 X115.971 Y34.364
G0 X113.305 Y34.364
G0 X113.305 Y34.524
G1 F2400 X113.305 Y26.734 E347.18896
G0 F3000 X113.305 Y26.894
G0 X110.639 Y26.894
G0 X110.639 Y26.734
G1 F2400 X110.639 Y34.524 E347.44805
G0 F3000 X110.639 Y34.364
G0 X107.973 Y34.364
G0 X107.973 Y34.524
G1 F2400 X107.973 Y26.734 E347.70715
G0 F3000 X107.973 Y26.894
G0 X105.307 Y26.894
G0 X105.307 Y26.734
G1 F2400 X105.307 Y34.524 E347.96624
G0 F3000 X105.307 Y34.364
G0 X102.641 Y34.364
G0 X102.641 Y34.524
G1 F2400 X102.641 Y26.734 E348.22534
G0 F3000 X102.641 Y26.894
G0 X99.975 Y26.894
G0 X99.975 Y26.734
G1 F2400 X99.975 Y34.524 E348.48444
G0 F3000 X99.975 Y34.364
G0 X97.309 Y34.364
G0 X97.309 Y34.524
G1 F2400 X97.309 Y26.734 E348.74353
G0 F3000 X97.309 Y26.894
G0 X94.643 Y26.894
G0 X94.643 Y26.734
G1 F2400 X94.643 Y34.524 E349.00263
G0 F3000 X94.643 Y34.364
G0 X91.977 Y34.364
G0 X91.977 Y34.524
G1 F2400 X91.977 Y26.734 E349.26173
G0 F3000 X91.977 Y26.894
G0 X89.311 Y26.894
G0 X89.311 Y26.734
G1 F2400 X89.311 Y34.524 E349.52082
G0 F3000 X89.311 Y34.364
G0 X86.645 Y34.364
G0 X86.645 Y34.524
G1 F2400 X86.645 Y26.734 E349.77992
G0 F3000 X86.645 Y26.894
G0 X83.979 Y26.894
G0 X83.979 Y26.734
G1 F2400 X83.979 Y34.524 E350.03902
G0 F3000 X83.979 Y34.364
G0 X81.313 Y34.364
G0 X81.313 Y34.524
G1 F2400 X81.313 Y26.734 E350.29811
G0 F3000 X81.313 Y26.894
G0 X78.647 Y26.894
G0 X78.647 Y26.734
G1 F2400 X78.647 Y34.524 E350.55721
G0 F3000 X78.647 Y34.364
G0 X75.981 Y34.364
G0 X75.981 Y34.524
G1 F2400 X75.981 Y26.734 E350.81631
G0 F3000 X75.980 Y26.893
G0 X73.315 Y26.895
G0 X73.315 Y26.734
G1 F2400 X73.315 Y34.524 E351.07540
;LAYER:8
G1 F4800 E345.07540
M104 S217
G0 F3000 X76.126 Y25.602 Z1.900
;TYPE:WALL-INNER
G1 F4800 E351.07540
G1 F2100 X73.316 Y25.603 E351.16886
G1 X73.634 Y24.995 E351.19168
G1 X73.810 Y24.818 E351.19999
G1 X73.847 Y24.806 E351.20128
G1 X147.161 Y24.807 E353.63971
G1 X147.195 Y24.818 E353.64090
G1 X147.370 Y24.994 E353.64916
G1 X147.688 Y25.603 E353.67201
G1 X76.693 Y25.603 E356.03331
G1 X76.126 Y25.602 E356.05217
G0 F3000 X73.824 Y24.706
G0 X73.786 Y24.406
;TYPE:WALL-OUTER
G1 F2100 X147.221 Y24.407 E358.49463
G1 X147.409 Y24.466 E358.50118
G1 X147.698 Y24.758 E358.51485
G1 X148.348 Y26.003 E358.56156
G1 X72.656 Y26.003 E361.07908
G1 X73.306 Y24.758 E361.12580
G1 X73.596 Y24.466 E361.13948
G1 X73.786 Y24.406 E361.14611
G0 F3000 X74.240 Y25.025
;TYPE:FILL
G1 F2400 X74.625 Y25.410 E361.16422
G0 F3000 X75.371 Y25.025
G1 F2400 X75.756 Y25.410 E361.18233
G0 F3000 X76.503 Y25.025
G1 F2400 X76.887 Y25.410 E361.20042
G0 F3000 X77.634 Y25.025
G1 F2400 X78.019 Y25.410 E361.21853
G0 F3000 X78.766 Y25.025
G1 F2400 X79.150 Y25.410 E361.23661
G0 F3000 X79.897 Y25.025
G1 F2400 X80.282 Y25.410 E361.25472
G0 F3000 X81.028 Y25.025
G1 F2400 X81.413 Y25.410 E361.27283
G0 F3000 X82.160 Y25.025
G1 F2400 X82.544 Y25.410 E361.29092
G0 F3000 X83.291 Y25.025
G1 F2400 X83.676 Y25.410 E361.30902
G0 F3000 X84.422 Y25.025
G1 F2400 X84.807 Y25.410 E361.32713
G0 F3000 X85.554 Y25.025
G1 F2400 X85.938 Y25.410 E361.34522
G0 F3000 X86.685 Y25.025
G1 F2400 X87.070 Y25.410 E361.36333
G0 F3000 X87.817 Y25.025
G1 F2400 X88.201 Y25.410 E361.38141
G0 F3000 X88.948 Y25.025
G1 F2400 X89.333 Y25.410 E361.39952
G0 F3000 X90.079 Y25.025
G1 F2400 X90.464 Y25.410 E361.41763
G0 F3000 X91.211 Y25.025
G1 F2400 X91.595 Y25.410 E361.43572
G0 F3000 X92.342 Y25.025
G1 F2400 X92.727 Y25.410 E361.45383
G0 F3000 X93.473 Y25.025
G1 F2400 X93.858 Y25.410 E361.47194
G0 F3000 X94.605 Y25.025
G1 F2400 X94.989 Y25.410 E361.49002
G0 F3000 X95.736 Y25.025
G1 F2400 X96.121 Y25.410 E361.50813
G0 F3000 X96.867 Y25.025
G1 F2400 X97.252 Y25.410 E361.52624
G0 F3000 X97.999 Y25.025
G1 F2400 X98.384 Y25.410 E361.54435
G0 F3000 X99.130 Y25.025
G1 F2400 X99.515 Y25.410 E361.56246
G0 F3000 X100.262 Y25.025
G1 F2400 X100.646 Y25.410 E361.58055
G0 F3000 X101.393 Y25.025
G1 F2400 X101.778 Y25.410 E361.59865
G0 F3000 X102.524 Y25.025
G1 F2400 X102.909 Y25.410 E361.61676
G0 F3000 X103.656 Y25.025
G1 F2400 X104.040 Y25.410 E361.63485
G0 F3000 X104.787 Y25.025
G1 F2400 X105.172 Y25.410 E361.65296
G0 F3000 X105.918 Y25.025
G1 F2400 X106.303 Y25.410 E361.67107
G0 F3000 X107.050 Y25.025
G1 F2400 X107.434 Y25.410 E361.68915
G0 F3000 X108.181 Y25.025
G1 F2400 X108.566 Y25.410 E361.70726
G0 F3000 X109.313 Y25.025
G1 F2400 X109.697 Y25.410 E361.72535
G0 F3000 X110.444 Y25.025
G1 F2400 X110.829 Y25.411 E361.74348
G0 F3000 X111.576 Y25.026
G1 F2400 X111.961 Y25.411 E361.76159
G0 F3000 X112.707 Y25.026
G1 F2400 X113.092 Y25.411 E361.77970
G0 F3000 X113.839 Y25.026
G1 F2400 X114.223 Y25.411 E361.79779
G0 F3000 X114.970 Y25.026
G1 F2400 X115.355 Y25.411 E361.81589
G0 F3000 X116.101 Y25.026
G1 F2400 X116.486 Y25.411 E361.83400
G0 F3000 X117.233 Y25.026
G1 F2400 X117.618 Y25.411 E361.85211
G0 F3000 X118.364 Y25.026
G1 F2400 X118.749 Y25.411 E361.87022
G0 F3000 X119.496 Y25.026
G1 F2400 X119.880 Y25.411 E361.88831
G0 F3000 X120.627 Y25.026
G1 F2400 X121.012 Y25.411 E361.90642
G0 F3000 X121.758 Y25.026
G1 F2400 X122.143 Y25.411 E361.92453
G0 F3000 X122.890 Y25.026
G1 F2400 X123.274 Y25.411 E361.94261
G0 F3000 X124.021 Y25.026
G1 F2400 X124.406 Y25.411 E361.96072
G0 F3000 X125.152 Y25.026
G1 F2400 X125.537 Y25.411 E361.97883
G0 F3000 X126.284 Y25.026
G1 F2400 X126.668 Y25.411 E361.99692
G0 F3000 X127.415 Y25.026
G1 F2400 X127.800 Y25.411 E362.01503
G0 F3000 X128.547 Y25.026
G1 F2400 X128.931 Y25.411 E362.03311
G0 F3000 X129.678 Y25.026
G1 F2400 X130.063 Y25.411 E362.05122
G0 F3000 X130.809 Y25.026
G1 F2400 X131.194 Y25.411 E362.06933
G0 F3000 X131.941 Y25.026
G1 F2400 X132.325 Y25.411 E362.08742
G0 F3000 X133.072 Y25.026
G1 F2400 X133.457 Y25.411 E362.10552
G0 F3000 X134.203 Y25.026
G1 F2400 X134.588 Y25.411 E362.12363
G0 F3000 X135.335 Y25.026
G1 F2400 X135.719 Y25.411 E362.14172
G0 F3000 X136.466 Y25.026
G1 F2400 X136.851 Y25.411 E362.15983
G0 F3000 X137.598 Y25.026
G1 F2400 X137.982 Y25.411 E362.17791
G0 F3000 X138.729 Y25.026
G1 F2400 X139.114 Y25.411 E362.19602
G0 F3000 X139.860 Y25.026
G1 F2400 X140.245 Y25.411 E362.21413
G0 F3000 X140.992 Y25.026
G1 F2400 X141.376 Y25.411 E362.23222
G0 F3000 X142.123 Y25.026
G1 F2400 X142.508 Y25.411 E362.25033
G0 F3000 X143.254 Y25.026
G1 F2400 X143.639 Y25.411 E362.26844
G0 F3000 X144.386 Y25.026
G1 F2400 X144.770 Y25.411 E362.28652
G0 F3000 X145.517 Y25.026
G1 F2400 X145.902 Y25.411 E362.30463
G0 F3000 X146.648 Y25.026
G1 F2400 X146.917 Y25.436 E362.32274
G1 X146.604 Y25.264 E362.33075
G1 X146.148 Y25.092 E362.34445
G1 X145.583 Y25.092 E362.35812
G1 X145.017 Y25.092 E362.37182
G1 X144.451 Y25.092 E362.38551
G1 X143.886 Y25.092 E362.39918
G1 X143.320 Y25.092 E362.41288
G1 X142.754 Y25.092 E362.42657
G1 X142.189 Y25.092 E362.44025
G1 X141.623 Y25.092 E362.45394
G1 X141.057 Y25.092 E362.46764
G1 X140.492 Y25.092 E362.48131
G1 X139.953 Y25.118 E362.49499
G1 X140.211 Y25.376 E362.50300
G1 X140.776 Y25.376 E362.51099
G1 X141.342 Y25.376 E362.51899
G1 X141.908 Y25.376 E362.52699
G1 X142.473 Y25.376 E362.53498
G1 X143.039 Y25.376 E362.54298
G1 X143.605 Y25.376 E362.55098
G1 X144.171 Y25.376 E362.55903
G1 X144.736 Y25.376 E362.56701
G1 X145.302 Y25.376 E362.57501
G1 X145.868 Y25.376 E362.58306
G1 X146.236 Y25.462 E362.59563
G0 F3000 X146.851 Y24.946
;TYPE:SKIN
G1 X147.368 Y25.462 E362.61993
G0 X139.789 Y25.238
G1 X139.360 Y25.092 E362.63360
G1 X138.794 Y25.092 E362.64730
G1 X138.229 Y25.092 E362.66097
G1 X137.663 Y25.092 E362.67467
G1 X137.097 Y25.092 E362.68836
G1 X136.532 Y25.092 E362.70203
G1 X135.966 Y25.092 E362.71573
G1 X135.400 Y25.092 E362.72942
G1 X134.835 Y25.092 E362.74309
G1 X134.269 Y25.092 E362.75679
G1 X133.703 Y25.092 E362.77048
G1 X133.138 Y25.092 E362.78416
G1 X132.572 Y25.092 E362.79785
G1 X132.006 Y25.092 E362.81155
G1 X131.441 Y25.092 E362.82522
G1 X130.875 Y25.092 E362.83891
G1 X130.309 Y25.092 E362.85261
G1 X129.744 Y25.092 E362.86628
G1 X129.178 Y25.092 E362.87998
G1 X128.612 Y25.092 E362.89367
G1 X128.046 Y25.092 E362.90737
G1 X127.481 Y25.092 E362.92104
G1 X126.915 Y25.092 E362.93473
G1 X126.349 Y25.092 E362.94843
G1 X125.784 Y25.092 E362.96210
G1 X125.218 Y25.092 E362.97579
G1 X124.652 Y25.092 E362.98949
G1 X124.087 Y25.092 E363.00316
G1 X123.521 Y25.092 E363.01686
G1 X122.955 Y25.092 E363.03055
G1 X122.390 Y25.092 E363.04422
G1 X121.824 Y25.092 E363.05792
G1 X121.258 Y25.092 E363.07161
G1 X120.693 Y25.092 E363.08528
G1 X120.154 Y25.118 E363.09897
G1 X120.412 Y25.376 E363.10698
G1 X120.977 Y25.376 E363.11497
G1 X121.543 Y25.376 E363.12297
G1 X122.109 Y25.376 E363.13097
G1 X122.674 Y25.376 E363.13895
G1 X123.240 Y25.376 E363.14695
G1 X123.806 Y25.376 E363.15496
G1 X124.372 Y25.376 E363.16300
G1 X124.937 Y25.376 E363.17099
G1 X125.503 Y25.376 E363.17899
G1 X126.069 Y25.376 E363.18704
G1 X126.634 Y25.376 E363.19502
G1 X127.200 Y25.376 E363.20303
G1 X127.766 Y25.376 E363.21103
G1 X128.331 Y25.376 E363.21901
G1 X128.897 Y25.376 E363.22701
G1 X129.463 Y25.376 E363.23501
G1 X130.028 Y25.376 E363.24300
G1 X130.594 Y25.376 E363.25100
G1 X131.160 Y25.376 E363.25900
G1 X131.725 Y25.376 E363.26699
G1 X132.291 Y25.376 E363.27499
G1 X132.857 Y25.376 E363.28299
G1 X133.422 Y25.376 E363.29098
G1 X133.988 Y25.376 E363.29898
G1 X134.554 Y25.376 E363.30698
G1 X135.120 Y25.376 E363.31503
G1 X135.685 Y25.376 E363.32301
G1 X136.251 Y25.376 E363.33101
G1 X136.817 Y25.376 E363.33906
G1 X137.382 Y25.376 E363.34705
G1 X137.948 Y25.376 E363.35505
G1 X138.514 Y25.376 E363.36305
G1 X139.079 Y25.376 E363.37104
G1 X139.448 Y25.462 E363.38364
G0 X119.990 Y25.238
G1 X119.561 Y25.092 E363.39732
G1 X118.995 Y25.092 E363.41101
G1 X118.430 Y25.092 E363.42468
G1 X117.864 Y25.092 E363.43838
G1 X117.298 Y25.092 E363.45207
G1 X116.733 Y25.092 E363.46574
G1 X116.167 Y25.092 E363.47944
G1 X115.601 Y25.092 E363.49314
G1 X115.036 Y25.092 E363.50681
G1 X114.470 Y25.092 E363.52050
G1 X113.904 Y25.092 E363.53420
G1 X113.339 Y25.092 E363.54787
G1 X112.773 Y25.092 E363.56156
G1 X112.207 Y25.092 E363.57526
G1 X111.642 Y25.092 E363.58893
G1 X111.076 Y25.092 E363.60263
G1 X110.510 Y25.092 E363.61632
G1 X109.945 Y25.092 E363.62999
G1 X109.379 Y25.092 E363.64369
G1 X108.813 Y25.092 E363.65738
G1 X108.247 Y25.092 E363.67108
G1 X107.682 Y25.092 E363.68475
G1 X107.116 Y25.092 E363.69844
G1 X106.550 Y25.092 E363.71214
G1 X105.985 Y25.092 E363.72581
G1 X105.419 Y25.092 E363.73951
G1 X104.853 Y25.092 E363.75320
G1 X104.288 Y25.092 E363.76687
G1 X103.722 Y25.092 E363.78057
G1 X103.156 Y25.092 E363.79426
G1 X102.591 Y25.092 E363.80793
G1 X102.025 Y25.092 E363.82163
G1 X101.459 Y25.092 E363.83533
G1 X100.894 Y25.092 E363.84900
G1 X100.328 Y25.092 E363.86269
G1 X99.762 Y25.092 E363.87639
G1 X99.197 Y25.092 E363.89006
G1 X98.631 Y25.092 E363.90375
G1 X98.065 Y25.092 E363.91745
G1 X97.499 Y25.092 E363.93114
G1 X96.934 Y25.092 E363.94482
G1 X96.368 Y25.092 E363.95851
G1 X95.802 Y25.092 E363.97221
G1 X95.237 Y25.092 E363.98588
G1 X94.671 Y25.092 E363.99957
G1 X94.105 Y25.092 E364.01327
G1 X93.540 Y25.092 E364.02694
G1 X92.974 Y25.092 E364.04063
G1 X92.408 Y25.092 E364.05433
G1 X91.843 Y25.092 E364.06800
G1 X91.277 Y25.092 E364.08170
G1 X90.711 Y25.092 E364.09539
G1 X90.146 Y25.092 E364.10906
G1 X89.580 Y25.092 E364.12276
G1 X89.014 Y25.092 E364.13645
G1 X88.448 Y25.092 E364.15015
G1 X87.883 Y25.092 E364.16382
G1 X87.317 Y25.092 E364.17752
G1 X86.751 Y25.092 E364.19121
G1 X86.186 Y25.092 E364.20488
G1 X85.620 Y25.092 E364.21858
G1 X85.054 Y25.092 E364.23227
G1 X84.489 Y25.092 E364.24594
G1 X83.923 Y25.092 E364.25964
G1 X83.357 Y25.092 E364.27334
G1 X82.792 Y25.092 E364.28701
G1 X82.226 Y25.092 E364.30070
G1 X81.660 Y25.092 E364.31440
G1 X81.095 Y25.092 E364.32807
G1 X80.529 Y25.092 E364.34176
G1 X79.990 Y25.118 E364.35545
G1 X80.248 Y25.376 E364.36346
G1 X80.814 Y25.376 E364.37146
G1 X81.379 Y25.376 E364.37945
G1 X81.945 Y25.376 E364.38745
G1 X82.511 Y25.376 E364.39545
G1 X83.076 Y25.376 E364.40343
G1 X83.642 Y25.376 E364.41143
G1 X84.208 Y25.376 E364.41944
G1 X84.774 Y25.376 E364.42748
G1 X85.339 Y25.376 E364.43547
G1 X85.905 Y25.376 E364.44347
G1 X86.471 Y25.376 E364.45152
G1 X87.036 Y25.376 E364.45950
G1 X87.602 Y25.376 E364.46751
G1 X88.168 Y25.376 E364.47551
G1 X88.733 Y25.376 E364.48349
G1 X89.299 Y25.376 E364.49149
G1 X89.865 Y25.376 E364.49949
G1 X90.430 Y25.376 E364.50748
G1 X90.996 Y25.376 E364.51548
G1 X91.562 Y25.376 E364.52348
G1 X92.127 Y25.376 E364.53147
G1 X92.693 Y25.376 E364.53947
G1 X93.259 Y25.376 E364.54747
G1 X93.825 Y25.376 E364.55552
G1 X94.390 Y25.376 E364.56350
G1 X94.956 Y25.376 E364.57151
G1 X95.522 Y25.376 E364.57955
G1 X96.087 Y25.376 E364.58754
G1 X96.653 Y25.376 E364.59554
G1 X97.219 Y25.376 E364.60354
G1 X97.784 Y25.376 E364.61153
G1 X98.350 Y25.376 E364.61953
G1 X98.916 Y25.376 E364.62753
G1 X99.481 Y25.376 E364.63552
G1 X100.047 Y25.376 E364.64352
G1 X100.613 Y25.376 E364.65152
G1 X101.178 Y25.376 E364.65950
G1 X101.744 Y25.376 E364.66750
G1 X102.310 Y25.376 E364.67551
G1 X102.875 Y25.376 E364.68349
G1 X103.441 Y25.376 E364.69149
G1 X104.007 Y25.376 E364.69949
G1 X104.573 Y25.376 E364.70754
G1 X105.138 Y25.376 E364.71553
G1 X105.704 Y25.376 E364.72353
G1 X106.270 Y25.376 E364.73158
G1 X106.835 Y25.376 E364.73956
G1 X107.401 Y25.376 E364.74756
G1 X107.967 Y25.376 E364.75556
G1 X108.532 Y25.376 E364.76355
G1 X109.098 Y25.376 E364.77155
G1 X109.664 Y25.376 E364.77955
G1 X110.229 Y25.376 E364.78754
G1 X110.795 Y25.376 E364.79554
G1 X111.361 Y25.376 E364.80354
G1 X111.926 Y25.376 E364.81153
G1 X112.492 Y25.376 E364.81953
G1 X113.058 Y25.376 E364.82753
G1 X113.623 Y25.376 E364.83551
G1 X114.189 Y25.376 E364.84352
G1 X114.755 Y25.376 E364.85152
G1 X115.321 Y25.376 E364.85956
G1 X115.886 Y25.376 E364.86755
G1 X116.452 Y25.376 E364.87555
G1 X117.018 Y25.376 E364.88360
G1 X117.583 Y25.376 E364.89159
G1 X118.149 Y25.376 E364.89959
G1 X118.715 Y25.376 E364.90759
G1 X119.280 Y25.376 E364.91557
G1 X119.649 Y25.462 E364.92818
G0 X79.826 Y25.238
G1 X79.398 Y25.092 E364.94186
G1 X78.832 Y25.092 E364.95556
G1 X78.266 Y25.092 E364.96925
G1 X77.700 Y25.092 E364.98295
G1 X77.135 Y25.092 E364.99662
G1 X76.569 Y25.092 E365.01032
G1 X76.003 Y25.092 E365.02401
G1 X75.438 Y25.092 E365.03768
G1 X74.872 Y25.092 E365.05138
G1 X74.306 Y25.092 E365.06507
G1 X73.760 Y25.111 E365.07875
G1 X74.026 Y25.376 E365.08749
G1 X74.591 Y25.376 E365.09547
G1 X75.157 Y25.376 E365.10348
G1 X75.723 Y25.376 E365.11152
G1 X76.288 Y25.376 E365.11951
G1 X76.854 Y25.376 E365.12751
G1 X77.420 Y25.376 E365.13551
G1 X77.985 Y25.376 E365.14350
G1 X78.551 Y25.376 E365.15150
G1 X79.117 Y25.376 E365.15950
G1 X79.485 Y25.462 E365.17207
G1 F4800 E359.17207
G0 F3000 X78.647 Y26.843
;TYPE:SUPPORT
G1 F4800 E365.17207
G1 F2400 X78.647 Y34.524 E365.42754
G0 F3000 X78.647 Y34.364
G0 X75.981 Y34.364
G0 X75.981 Y34.524
G1 F2400 X75.981 Y26.843 E365.68301
G0 F3000 X75.981 Y27.003
G0 X73.315 Y27.004
G0 X73.315 Y26.843
G1 F2400 X73.315 Y34.524 E365.93848
G0 F3000 X73.315 Y34.364
G0 X81.313 Y34.364
G0 X81.313 Y34.524
G1 F2400 X81.313 Y26.843 E366.19395
G0 F3000 X81.313 Y27.003
G0 X83.979 Y27.003
G0 X83.979 Y26.843
G1 F2400 X83.979 Y34.524 E366.44942
G0 F3000 X83.979 Y34.364
G0 X86.645 Y34.364
G0 X86.645 Y34.524
G1 F2400 X86.645 Y26.843 E366.70490
G0 F3000 X86.645 Y27.003
G0 X89.311 Y27.003
G0 X89.311 Y26.843
G1 F2400 X89.311 Y34.524 E366.96037
G0 F3000 X89.311 Y34.364
G0 X91.977 Y34.364
G0 X91.977 Y34.524
G1 F2400 X91.977 Y26.843 E367.21584
G0 F3000 X91.977 Y27.003
G0 X94.643 Y27.003
G0 X94.643 Y26.843
G1 F2400 X94.643 Y34.524 E367.47131
G0 F3000 X94.643 Y34.364
G0 X97.309 Y34.364
G0 X97.309 Y34.524
G1 F2400 X97.309 Y26.843 E367.72678
G0 F3000 X97.309 Y27.003
G0 X99.975 Y27.003
G0 X99.975 Y26.843
G1 F2400 X99.975 Y34.524 E367.98225
G0 F3000 X99.975 Y34.364
G0 X102.641 Y34.364
G0 X102.641 Y34.524
G1 F2400 X102.641 Y26.843 E368.23772
G0 F3000 X102.641 Y27.003
G0 X105.307 Y27.003
G0 X105.307 Y26.843
G1 F2400 X105.307 Y34.524 E368.49319
G0 F3000 X105.307 Y34.364
G0 X107.973 Y34.364
G0 X107.973 Y34.524
G1 F2400 X107.973 Y26.843 E368.74866
G0 F3000 X107.973 Y27.003
G0 X110.639 Y27.003
G0 X110.639 Y26.843
G1 F2400 X110.639 Y34.524 E369.00414
G0 F3000 X110.639 Y34.364
G0 X113.305 Y34.364
G0 X113.305 Y34.524
G1 F2400 X113.305 Y26.843 E369.25961
G0 F3000 X113.305 Y27.003
G0 X115.971 Y27.003
G0 X115.971 Y26.843
G1 F2400 X115.971 Y34.524 E369.51508
G0 F3000 X115.971 Y34.364
G0 X118.637 Y34.364
G0 X118.637 Y34.524
G1 F2400 X118.637 Y26.843 E369.77055
G0 F3000 X118.637 Y27.003
G0 X121.303 Y27.003
G0 X121.303 Y26.843
G1 F2400 X121.303 Y34.524 E370.02602
G0 F3000 X121.303 Y34.364
G0 X123.969 Y34.364
G0 X123.969 Y34.524
G1 F2400 X123.969 Y26.843 E370.28149
G0 F3000 X123.969 Y27.003
G0 X126.635 Y27.003
G0 X126.635 Y26.843
G1 F2400 X126.635 Y34.524 E370.53696
G0 F3000 X126.635 Y34.364
G0 X129.301 Y34.364
G0 X129.301 Y34.524
G1 F2400 X129.301 Y26.843 E370.79243
G0 F3000 X129.301 Y27.003
G0 X131.967 Y27.003
G0 X131.967 Y26.843
G1 F2400 X131.967 Y34.524 E371.04790
G0 F3000 X131.967 Y34.364
G0 X134.633 Y34.364
G0 X134.633 Y34.524
G1 F2400 X134.633 Y26.843 E371.30338
G0 F3000 X134.633 Y27.003
G0 X137.299 Y27.003
G0 X137.299 Y26.843
G1 F2400 X137.299 Y34.524 E371.55885
G0 F3000 X137.299 Y34.364
G0 X139.965 Y34.364
G0 X139.965 Y34.524
G1 F2400 X139.965 Y26.843 E371.81432
G0 F3000 X139.965 Y27.003
G0 X142.631 Y27.003
G0 X142.631 Y26.843
G1 F2400 X142.631 Y34.524 E372.06979
G0 F3000 X142.631 Y34.364
G0 X145.297 Y34.364
G0 X145.297 Y34.524
G1 F2400 X145.297 Y26.843 E372.32526
G0 F3000 X145.297 Y27.003
G0 X147.963 Y27.003
G0 X147.963 Y26.843
G1 F2400 X147.963 Y34.524 E372.58073
;LAYER:9
G1 F4800 E366.58073
M104 S216
G0 F3000 X147.687 Y25.711 Z2.100
;TYPE:WALL-INNER
G1 F4800 E372.58073
G1 F2100 X77.023 Y25.712 E374.93102
G1 X76.789 Y25.710 E374.93881
G1 X76.389 Y25.711 E374.95211
G1 X75.952 Y25.710 E374.96665
G1 X73.317 Y25.711 E375.05429
G1 X73.818 Y24.752 E375.09027
G1 X73.876 Y24.693 E375.09303
G1 X147.128 Y24.694 E377.52940
G1 X147.187 Y24.754 E377.53220
G1 X147.687 Y25.711 E377.56811
G0 F3000 X147.514 Y24.515
;TYPE:WALL-OUTER
G1 F2100 X148.348 Y26.111 E377.62800
G1 X77.020 Y26.112 E380.00038
G1 X76.788 Y26.110 E380.00810
G1 X72.656 Y26.111 E380.14553
G1 X73.490 Y24.515 E380.20542
G1 X73.677 Y24.327 E380.21424
G1 X73.783 Y24.293 E380.21794
G1 X147.221 Y24.294 E382.66050
G1 X147.329 Y24.328 E382.66427
G1 X147.514 Y24.515 E382.67302
G0 F3000 X147.286 Y25.247
;TYPE:FILL
G1 F2400 X147.013 Y25.520 E382.68586
G0 F3000 X146.489 Y24.912
G1 F2400 X145.881 Y25.520 E382.71446
G0 F3000 X145.358 Y24.912
G1 F2400 X144.750 Y25.520 E382.74306
G0 F3000 X144.227 Y24.912
G1 F2400 X143.619 Y25.520 E382.77165
G0 F3000 X143.095 Y24.912
G1 F2400 X142.487 Y25.520 E382.80025
G0 F3000 X141.964 Y24.912
G1 F2400 X141.356 Y25.520 E382.82885
G0 F3000 X140.833 Y24.912
G1 F2400 X140.224 Y25.520 E382.85747
G0 F3000 X139.701 Y24.912
G1 F2400 X139.093 Y25.520 E382.88607
G0 F3000 X138.570 Y24.912
G1 F2400 X137.962 Y25.520 E382.91467
G0 F3000 X137.438 Y24.912
G1 F2400 X136.830 Y25.520 E382.94327
G0 F3000 X136.307 Y24.912
G1 F2400 X135.699 Y25.520 E382.97187
G0 F3000 X135.176 Y24.912
G1 F2400 X134.568 Y25.520 E383.00047
G0 F3000 X134.044 Y24.912
G1 F2400 X133.436 Y25.520 E383.02906
G0 F3000 X132.913 Y24.912
G1 F2400 X132.305 Y25.520 E383.05766
G0 F3000 X131.782 Y24.912
G1 F2400 X131.173 Y25.520 E383.08628
G0 F3000 X130.650 Y24.912
G1 F2400 X130.042 Y25.520 E383.11488
G0 F3000 X129.519 Y24.912
G1 F2400 X128.911 Y25.520 E383.14348
G0 F3000 X128.387 Y24.912
G1 F2400 X127.779 Y25.520 E383.17208
G0 F3000 X127.256 Y24.912
G1 F2400 X126.648 Y25.520 E383.20068
G0 F3000 X126.125 Y24.912
G1 F2400 X125.517 Y25.520 E383.22928
G0 F3000 X124.993 Y24.912
G1 F2400 X124.385 Y25.520 E383.25787
G0 F3000 X123.862 Y24.912
G1 F2400 X123.254 Y25.520 E383.28647
G0 F3000 X122.731 Y24.912
G1 F2400 X122.122 Y25.520 E383.31510
G0 F3000 X121.599 Y24.912
G1 F2400 X120.991 Y25.520 E383.34369
G0 F3000 X120.468 Y24.912
G1 F2400 X119.860 Y25.520 E383.37229
G0 F3000 X119.336 Y24.912
G1 F2400 X118.728 Y25.520 E383.40089
G0 F3000 X118.205 Y24.912
G1 F2400 X117.597 Y25.520 E383.42949
G0 F3000 X117.074 Y24.912
G1 F2400 X116.466 Y25.520 E383.45809
G0 F3000 X115.942 Y24.912
G1 F2400 X115.334 Y25.520 E383.48669
G0 F3000 X114.811 Y24.912
G1 F2400 X114.203 Y25.520 E383.51528
G0 F3000 X113.680 Y24.912
G1 F2400 X113.072 Y25.520 E383.54388
G0 F3000 X112.548 Y24.912
G1 F2400 X111.940 Y25.520 E383.57248
G0 F3000 X111.417 Y24.912
G1 F2400 X110.809 Y25.520 E383.60108
G0 F3000 X110.286 Y24.912
G1 F2400 X109.678 Y25.520 E383.62968
G0 F3000 X109.155 Y24.912
G1 F2400 X108.547 Y25.520 E383.65828
G0 F3000 X108.023 Y24.912
G1 F2400 X107.415 Y25.520 E383.68688
G0 F3000 X106.892 Y24.912
G1 F2400 X106.284 Y25.520 E383.71547
G0 F3000 X105.761 Y24.912
G1 F2400 X105.153 Y25.520 E383.74407
G0 F3000 X104.629 Y24.912
G1 F2400 X104.021 Y25.520 E383.77267
G0 F3000 X103.498 Y24.912
G1 F2400 X102.890 Y25.520 E383.80127
G0 F3000 X102.367 Y24.912
G1 F2400 X101.759 Y25.520 E383.82987
G0 F3000 X101.235 Y24.912
G1 F2400 X100.627 Y25.520 E383.85847
G0 F3000 X100.104 Y24.912
G1 F2400 X99.496 Y25.520 E383.88706
G0 F3000 X98.973 Y24.912
G1 F2400 X98.364 Y25.520 E383.91569
G0 F3000 X97.841 Y24.912
G1 F2400 X97.233 Y25.520 E383.94428
G0 F3000 X96.710 Y24.912
G1 F2400 X96.102 Y25.520 E383.97288
G0 F3000 X95.578 Y24.912
G1 F2400 X94.970 Y25.520 E384.00148
G0 F3000 X94.447 Y24.912
G1 F2400 X93.839 Y25.520 E384.03008
G0 F3000 X93.316 Y24.912
G1 F2400 X92.708 Y25.520 E384.05868
G0 F3000 X92.184 Y24.912
G1 F2400 X91.576 Y25.520 E384.08728
G0 F3000 X91.053 Y24.912
G1 F2400 X90.445 Y25.520 E384.11588
G0 F3000 X89.922 Y24.912
G1 F2400 X89.313 Y25.520 E384.14450
G0 F3000 X88.790 Y24.912
G1 F2400 X88.182 Y25.520 E384.17310
G0 F3000 X87.659 Y24.912
G1 F2400 X87.051 Y25.520 E384.20169
G0 F3000 X86.527 Y24.912
G1 F2400 X85.919 Y25.520 E384.23029
G0 F3000 X85.396 Y24.912
G1 F2400 X84.788 Y25.520 E384.25889
G0 F3000 X84.265 Y24.912
G1 F2400 X83.657 Y25.520 E384.28749
G0 F3000 X83.133 Y24.912
G1 F2400 X82.525 Y25.520 E384.31609
G0 F3000 X82.002 Y24.912
G1 F2400 X81.394 Y25.520 E384.34469
G0 F3000 X80.871 Y24.912
G1 F2400 X80.262 Y25.520 E384.37331
G0 F3000 X79.739 Y24.912
G1 F2400 X79.131 Y25.520 E384.40191
G0 F3000 X78.608 Y24.912
G1 F2400 X78.000 Y25.520 E384.43051
G0 F3000 X77.476 Y24.912
G1 F2400 X76.868 Y25.520 E384.45910
G0 F3000 X76.345 Y24.912
G1 F2400 X75.737 Y25.520 E384.48770
G0 F3000 X75.214 Y24.912
G1 F2400 X74.606 Y25.520 E384.51630
G0 F3000 X74.082 Y24.912
G1 F2400 X73.790 Y25.345 E384.53506
G1 X73.818 Y25.458 E384.54407
G1 X74.470 Y25.089 E384.56818
G1 X75.036 Y25.089 E384.59232
G1 X75.602 Y25.089 E384.61647
G1 X76.167 Y25.089 E384.64057
G1 X76.733 Y25.089 E384.66471
G1 X77.299 Y25.089 E384.68886
G1 X77.865 Y25.089 E384.71300
G1 X78.430 Y25.089 E384.73710
G1 X78.996 Y25.089 E384.76124
G1 X79.562 Y25.089 E384.78539
G1 X80.127 Y25.089 E384.80949
G1 X80.693 Y25.089 E384.83363
G1 X81.259 Y25.089 E384.85777
G1 X81.824 Y25.089 E384.88187
G1 X82.390 Y25.089 E384.90602
G1 X82.956 Y25.089 E384.93016
G1 X83.521 Y25.089 E384.95426
G1 X84.087 Y25.089 E384.97840
G1 X84.653 Y25.089 E385.00255
G1 X85.218 Y25.089 E385.02665
G1 X85.784 Y25.089 E385.05079
G1 X86.350 Y25.089 E385.07494
G1 X86.915 Y25.089 E385.09904
G1 X87.481 Y25.089 E385.12318
G1 X88.047 Y25.089 E385.14732
G1 X88.613 Y25.089 E385.17147
G1 X89.178 Y25.089 E385.19557
G1 X89.744 Y25.089 E385.21971
G1 X90.310 Y25.089 E385.24385
G1 X90.875 Y25.089 E385.26795
G1 X91.441 Y25.089 E385.29210
G1 X92.007 Y25.089 E385.31624
G1 X92.572 Y25.089 E385.34034
G1 X93.138 Y25.089 E385.36449
G1 X93.704 Y25.089 E385.38863
G1 X94.269 Y25.089 E385.41273
G1 X94.835 Y25.089 E385.43687
G1 X95.401 Y25.089 E385.46102
G1 X95.966 Y25.089 E385.48512
G1 X96.532 Y25.089 E385.50926
G1 X97.098 Y25.089 E385.53340
G1 X97.664 Y25.089 E385.55755
G1 X98.229 Y25.089 E385.58165
G1 X98.795 Y25.089 E385.60579
G1 X99.361 Y25.089 E385.62993
G1 X99.926 Y25.089 E385.65404
G1 X100.492 Y25.089 E385.67818
G1 X101.058 Y25.089 E385.70232
G1 X101.623 Y25.089 E385.72642
G1 X102.189 Y25.089 E385.75057
G1 X102.755 Y25.089 E385.77471
G1 X103.320 Y25.089 E385.79881
G1 X103.886 Y25.089 E385.82295
G1 X104.452 Y25.089 E385.84710
G1 X105.017 Y25.089 E385.87120
G1 X105.583 Y25.089 E385.89534
G1 X106.149 Y25.089 E385.91948
G1 X106.714 Y25.089 E385.94358
G1 X107.280 Y25.089 E385.96773
G1 X107.846 Y25.089 E385.99187
G1 X108.412 Y25.089 E386.01602
G1 X108.977 Y25.089 E386.04012
G1 X109.543 Y25.089 E386.06426
G1 X110.109 Y25.089 E386.08840
G1 X110.674 Y25.089 E386.11250
G1 X111.239 Y25.089 E386.13656
G1 X111.805 Y25.089 E386.16065
G1 X112.371 Y25.089 E386.18475
G1 X112.936 Y25.089 E386.20880
G1 X113.502 Y25.089 E386.23290
G1 X114.068 Y25.089 E386.25700
G1 X114.633 Y25.089 E386.28105
G1 X115.199 Y25.089 E386.30515
G1 X115.765 Y25.089 E386.32924
G1 X116.330 Y25.089 E386.35330
G1 X116.896 Y25.089 E386.37739
G1 X117.462 Y25.089 E386.40149
G1 X118.028 Y25.089 E386.42554
G1 X118.593 Y25.089 E386.44959
G1 X119.159 Y25.089 E386.47369
G1 X119.725 Y25.089 E386.49778
G1 X120.290 Y25.089 E386.52184
G1 X120.856 Y25.089 E386.54593
G1 X121.422 Y25.089 E386.57003
G1 X121.987 Y25.089 E386.59408
G1 X122.553 Y25.089 E386.61818
G1 X123.119 Y25.089 E386.64228
G1 X123.684 Y25.089 E386.66633
G1 X124.250 Y25.089 E386.69043
G1 X124.816 Y25.089 E386.71452
G1 X125.381 Y25.089 E386.73858
G1 X125.947 Y25.089 E386.76267
G1 X126.513 Y25.089 E386.78677
G1 X127.078 Y25.089 E386.81082
G1 X127.644 Y25.089 E386.83492
G1 X128.210 Y25.089 E386.85902
G1 X128.776 Y25.089 E386.88311
G1 X129.341 Y25.089 E386.90717
G1 X129.907 Y25.089 E386.93126
G1 X130.473 Y25.089 E386.95536
G1 X131.038 Y25.089 E386.97941
G1 X131.604 Y25.089 E387.00351
G1 X132.170 Y25.089 E387.02760
G1 X132.735 Y25.089 E387.05166
G1 X133.301 Y25.089 E387.07575
G1 X133.867 Y25.089 E387.09985
G1 X134.432 Y25.089 E387.12390
G1 X134.998 Y25.089 E387.14800
G1 X135.564 Y25.089 E387.17210
G1 X136.129 Y25.089 E387.19615
G1 X136.695 Y25.089 E387.22025
G1 X137.261 Y25.089 E387.24434
G1 X137.827 Y25.089 E387.26839
G1 X138.392 Y25.089 E387.29245
G1 X138.958 Y25.089 E387.31654
G1 X139.524 Y25.089 E387.34064
G1 X140.089 Y25.089 E387.36469
G1 X140.655 Y25.089 E387.38879
G1 X141.221 Y25.089 E387.41289
G1 X141.786 Y25.089 E387.43694
G1 X142.352 Y25.089 E387.46104
G1 X142.918 Y25.089 E387.48513
G1 X143.483 Y25.089 E387.50919
G1 X144.049 Y25.089 E387.53328
G1 X144.615 Y25.089 E387.55738
G1 X145.180 Y25.089 E387.58143
G1 X145.746 Y25.089 E387.60553
G1 X146.312 Y25.089 E387.62962
G1 X147.020 Y24.947 E387.65370
G1 X146.877 Y25.373 E387.66712
G1 X146.482 Y25.485 E387.67514
G1 X145.916 Y25.485 E387.68314
G1 X145.350 Y25.485 E387.69114
G1 X144.785 Y25.485 E387.69913
G1 X144.219 Y25.485 E387.70713
G1 X143.653 Y25.485 E387.71513
G1 X143.087 Y25.485 E387.72313
G1 X142.522 Y25.485 E387.73112
G1 X141.956 Y25.485 E387.73912
G1 X141.390 Y25.485 E387.74712
G1 X140.825 Y25.485 E387.75510
G1 X140.259 Y25.485 E387.76310
G1 X139.693 Y25.485 E387.77110
G1 X139.128 Y25.485 E387.77909
G1 X138.562 Y25.485 E387.78709
G1 X137.996 Y25.485 E387.79509
G1 X137.431 Y25.485 E387.80308
G1 X136.865 Y25.485 E387.81108
G1 X136.299 Y25.485 E387.81908
G1 X135.734 Y25.485 E387.82707
G1 X135.168 Y25.485 E387.83507
G1 X134.602 Y25.485 E387.84307
G1 X134.037 Y25.485 E387.85106
G1 X133.471 Y25.485 E387.85906
G1 X132.905 Y25.485 E387.86706
G1 X132.339 Y25.485 E387.87506
G1 X131.774 Y25.485 E387.88304
G1 X131.208 Y25.485 E387.89104
G1 X130.642 Y25.485 E387.89905
G1 X130.077 Y25.485 E387.90703
G1 X129.511 Y25.485 E387.91503
G1 X128.945 Y25.485 E387.92303
G1 X128.380 Y25.485 E387.93102
G1 X127.814 Y25.485 E387.93902
G1 X127.248 Y25.485 E387.94702
G1 X126.683 Y25.485 E387.95501
G1 X126.117 Y25.485 E387.96301
G1 X125.551 Y25.485 E387.97101
G1 X124.986 Y25.485 E387.97900
G1 X124.420 Y25.485 E387.98700
G1 X123.854 Y25.485 E387.99500
G1 X123.289 Y25.485 E388.00298
G1 X122.723 Y25.485 E388.01099
G1 X122.157 Y25.485 E388.01899
G1 X121.591 Y25.485 E388.02699
G1 X121.026 Y25.485 E388.03497
G1 X120.460 Y25.485 E388.04297
G1 X119.894 Y25.485 E388.05097
G1 X119.329 Y25.485 E388.05896
G1 X118.763 Y25.485 E388.06696
G1 X118.197 Y25.485 E388.07496
G1 X117.632 Y25.485 E388.08295
G1 X117.066 Y25.485 E388.09095
G1 X116.500 Y25.485 E388.09895
G1 X115.935 Y25.485 E388.10694
G1 X115.369 Y25.485 E388.11494
G1 X114.803 Y25.485 E388.12294
G1 X114.238 Y25.485 E388.13093
G1 X113.672 Y25.485 E388.13893
G1 X113.106 Y25.485 E388.14693
G1 X112.540 Y25.485 E388.15493
G1 X111.975 Y25.485 E388.16291
G1 X111.409 Y25.485 E388.17091
G1 X110.843 Y25.485 E388.17892
G1 X110.278 Y25.485 E388.18690
G1 X109.712 Y25.485 E388.19495
G1 X109.147 Y25.485 E388.20298
G1 X108.581 Y25.485 E388.21103
G1 X108.015 Y25.485 E388.21908
G1 X107.450 Y25.485 E388.22711
G1 X106.884 Y25.485 E388.23516
G1 X106.318 Y25.485 E388.24321
G1 X105.753 Y25.485 E388.25124
G1 X105.187 Y25.485 E388.25929
G1 X104.621 Y25.485 E388.26734
G1 X104.056 Y25.485 E388.27537
G1 X103.490 Y25.485 E388.28342
G1 X102.924 Y25.485 E388.29147
G1 X102.359 Y25.485 E388.29950
G1 X101.793 Y25.485 E388.30755
G1 X101.227 Y25.485 E388.31560
G1 X100.662 Y25.485 E388.32363
G1 X100.096 Y25.485 E388.33168
G1 X99.530 Y25.485 E388.33972
G1 X98.964 Y25.485 E388.34777
G1 X98.399 Y25.485 E388.35581
G1 X97.833 Y25.485 E388.36385
G1 X97.267 Y25.485 E388.37190
G1 X96.702 Y25.485 E388.37994
G1 X96.136 Y25.485 E388.38798
G1 X95.570 Y25.485 E388.39603
G1 X95.005 Y25.485 E388.40406
G1 X94.439 Y25.485 E388.41211
G1 X93.873 Y25.485 E388.42016
G1 X93.308 Y25.485 E388.42819
G1 X92.742 Y25.485 E388.43624
G1 X92.176 Y25.485 E388.44429
G1 X91.611 Y25.485 E388.45232
G1 X91.045 Y25.485 E388.46037
G1 X90.479 Y25.485 E388.46842
G1 X89.914 Y25.485 E388.47645
G1 X89.348 Y25.485 E388.48450
G1 X88.782 Y25.485 E388.49255
G1 X88.216 Y25.485 E388.50060
G1 X87.651 Y25.485 E388.50863
G1 X87.085 Y25.485 E388.51668
G1 X86.519 Y25.485 E388.52472
G1 X85.954 Y25.485 E388.53276
G1 X85.388 Y25.485 E388.54081
G1 X84.822 Y25.485 E388.54885
G1 X84.257 Y25.485 E388.55689
G1 X83.691 Y25.485 E388.56493
G1 X83.125 Y25.485 E388.57298
G1 X82.560 Y25.485 E388.58102
G1 X81.994 Y25.485 E388.58906
G1 X81.428 Y25.485 E388.59711
G1 X80.863 Y25.485 E388.60515
G1 X80.297 Y25.485 E388.61319
G1 X79.731 Y25.485 E388.62124
G1 X79.165 Y25.485 E388.62929
G1 X78.600 Y25.485 E388.63732
G1 X78.034 Y25.485 E388.64537
G1 X77.468 Y25.485 E388.65342
G1 X76.903 Y25.485 E388.66145
G1 X76.337 Y25.485 E388.66950
G1 X75.771 Y25.485 E388.67755
G1 X75.206 Y25.485 E388.68558
G1 X74.640 Y25.485 E388.69363
G1 X74.272 Y25.571 E388.70620
G0 F3000 X147.245 Y25.571
;TYPE:SKIN
G1 X147.382 Y25.433 E388.71267
G1 F4800 E382.71267
G0 F3000 X147.963 Y26.951
;TYPE:SUPPORT
G1 F4800 E388.71267
G1 F2400 X147.963 Y34.524 E388.96454
G0 F3000 X147.963 Y34.364
G0 X145.297 Y34.364
G0 X145.297 Y34.524
G1 F2400 X145.297 Y26.951 E389.21642
G0 F3000 X145.297 Y27.112
G0 X142.631 Y27.112
G0 X142.631 Y26.951
G1 F2400 X142.631 Y34.524 E389.46830
G0 F3000 X142.631 Y34.364
G0 X139.965 Y34.364
G0 X139.965 Y34.524
G1 F2400 X139.965 Y26.951 E389.72018
G0 F3000 X139.965 Y27.112
G0 X137.299 Y27.112
G0 X137.299 Y26.951
G1 F2400 X137.299 Y34.524 E389.97206
G0 F3000 X137.299 Y34.364
G0 X134.633 Y34.364
G0 X134.633 Y34.524
G1 F2400 X134.633 Y26.951 E390.22394
G0 F3000 X134.633 Y27.112
G0 X131.967 Y27.112
G0 X131.967 Y26.951
G1 F2400 X131.967 Y34.524 E390.47582
G0 F3000 X131.967 Y34.364
G0 X129.301 Y34.364
G0 X129.301 Y34.524
G1 F2400 X129.301 Y26.951 E390.72770
G0 F3000 X129.301 Y27.112
G0 X126.635 Y27.112
G0 X126.635 Y26.951
G1 F2400 X126.635 Y34.524 E390.97958
G0 F3000 X126.635 Y34.364
G0 X123.969 Y34.364
G0 X123.969 Y34.524
G1 F2400 X123.969 Y26.951 E391.23146
G0 F3000 X123.969 Y27.112
G0 X121.303 Y27.112
G0 X121.303 Y26.951
G1 F2400 X121.303 Y34.524 E391.48333
G0 F3000 X121.303 Y34.364
G0 X118.637 Y34.364
G0 X118.637 Y34.524
G1 F2400 X118.637 Y26.951 E391.73521
G0 F3000 X118.637 Y27.112
G0 X115.971 Y27.112
G0 X115.971 Y26.951
G1 F2400 X115.971 Y34.524 E391.98709
G0 F3000 X115.971 Y34.364
G0 X113.305 Y34.364
G0 X113.305 Y34.524
G1 F2400 X113.305 Y26.951 E392.23897
G0 F3000 X113.305 Y27.112
G0 X110.639 Y27.112
G0 X110.639 Y26.951
G1 F2400 X110.639 Y34.524 E392.49085
G0 F3000 X110.639 Y34.364
G0 X107.973 Y34.364
G0 X107.973 Y34.524
G1 F2400 X107.973 Y26.951 E392.74273
G0 F3000 X107.973 Y27.112
G0 X105.307 Y27.112
G0 X105.307 Y26.951
G1 F2400 X105.307 Y34.524 E392.99461
G0 F3000 X105.307 Y34.364
G0 X102.641 Y34.364
G0 X102.641 Y34.524
G1 F2400 X102.641 Y26.951 E393.24649
G0 F3000 X102.641 Y27.112
G0 X99.975 Y27.112
G0 X99.975 Y26.951
G1 F2400 X99.975 Y34.524 E393.49837
G0 F3000 X99.975 Y34.364
G0 X97.309 Y34.364
G0 X97.309 Y34.524
G1 F2400 X97.309 Y26.951 E393.75025
G0 F3000 X97.309 Y27.112
G0 X94.643 Y27.112
G0 X94.643 Y26.951
G1 F2400 X94.643 Y34.524 E394.00212
G0 F3000 X94.643 Y34.364
G0 X91.977 Y34.364
G0 X91.977 Y34.524
G1 F2400 X91.977 Y26.951 E394.25400
G0 F3000 X91.977 Y27.112
G0 X89.311 Y27.112
G0 X89.311 Y26.951
G1 F2400 X89.311 Y34.524 E394.50588
G0 F3000 X89.311 Y34.364
G0 X86.645 Y34.364
G0 X86.645 Y34.524
G1 F2400 X86.645 Y26.951 E394.75776
G0 F3000 X86.645 Y27.112
G0 X83.979 Y27.112
G0 X83.979 Y26.951
G1 F2400 X83.979 Y34.524 E395.00964
G0 F3000 X83.979 Y34.364
G0 X81.313 Y34.364
G0 X81.313 Y34.524
G1 F2400 X81.313 Y26.951 E395.26152
G0 F3000 X81.313 Y27.112
G0 X78.647 Y27.112
G0 X78.647 Y26.951
G1 F2400 X78.647 Y34.524 E395.51340
G0 F3000 X78.647 Y34.364
G0 X75.981 Y34.364
G0 X75.981 Y34.524
G1 F2400 X75.981 Y26.951 E395.76528
G0 F3000 X75.980 Y27.110
G0 X73.314 Y27.111
G0 X73.315 Y26.951
G1 F2400 X73.315 Y34.524 E396.01716
;LAYER:10
G1 F4800 E390.01716
M104 S216
G0 F3000 X73.743 Y25.820 Z2.300
;TYPE:WALL-INNER
G1 F4800 E396.01716
G1 F2100 X73.317 Y25.820 E396.03133
G1 X73.878 Y24.744 E396.07169
G1 X147.125 Y24.744 E398.50789
G1 X147.688 Y25.820 E398.54828
G1 X74.299 Y25.821 E400.98921
G1 X73.743 Y25.820 E401.00770
G0 F3000 X73.636 Y24.344
;TYPE:WALL-OUTER
G1 F2100 X147.367 Y24.343 E403.46001
G1 X148.348 Y26.220 E403.53045
G1 X72.656 Y26.220 E406.04797
G1 X73.636 Y24.344 E406.11837
G0 F3000 X74.098 Y24.883
;TYPE:FILL
G1 F2400 X74.841 Y25.626 E406.15332
G0 F3000 X75.229 Y24.883
G1 F2400 X75.974 Y25.628 E406.18836
G0 F3000 X76.361 Y24.883
G1 F2400 X77.105 Y25.628 E406.22338
G0 F3000 X77.492 Y24.883
G1 F2400 X78.237 Y25.628 E406.25842
G0 F3000 X78.623 Y24.883
G1 F2400 X79.368 Y25.628 E406.29346
G0 F3000 X79.755 Y24.883
G1 F2400 X80.499 Y25.628 E406.32848
G0 F3000 X80.886 Y24.883
G1 F2400 X81.631 Y25.628 E406.36353
G0 F3000 X82.018 Y24.883
G1 F2400 X82.762 Y25.628 E406.39855
G0 F3000 X83.149 Y24.883
G1 F2400 X83.893 Y25.628 E406.43356
G0 F3000 X84.280 Y24.883
G1 F2400 X85.025 Y25.628 E406.46861
G0 F3000 X85.412 Y24.883
G1 F2400 X86.156 Y25.628 E406.50363
G0 F3000 X86.543 Y24.883
G1 F2400 X87.288 Y25.628 E406.53867
G0 F3000 X87.674 Y24.883
G1 F2400 X88.419 Y25.628 E406.57371
G0 F3000 X88.806 Y24.883
G1 F2400 X89.550 Y25.628 E406.60873
G0 F3000 X89.937 Y24.883
G1 F2400 X90.682 Y25.628 E406.64377
G0 F3000 X91.068 Y24.883
G1 F2400 X91.813 Y25.628 E406.67881
G0 F3000 X92.200 Y24.883
G1 F2400 X92.944 Y25.628 E406.71383
G0 F3000 X93.331 Y24.883
G1 F2400 X94.076 Y25.628 E406.74888
G0 F3000 X94.463 Y24.883
G1 F2400 X95.207 Y25.628 E406.78390
G0 F3000 X95.594 Y24.883
G1 F2400 X96.339 Y25.628 E406.81894
G0 F3000 X96.725 Y24.883
G1 F2400 X97.470 Y25.628 E406.85398
G0 F3000 X97.857 Y24.883
G1 F2400 X98.601 Y25.628 E406.88900
G0 F3000 X98.988 Y24.883
G1 F2400 X99.733 Y25.628 E406.92404
G0 F3000 X100.119 Y24.883
G1 F2400 X100.864 Y25.628 E406.95908
G0 F3000 X101.251 Y24.883
G1 F2400 X101.995 Y25.628 E406.99410
G0 F3000 X102.382 Y24.883
G1 F2400 X103.127 Y25.628 E407.02915
G0 F3000 X103.514 Y24.883
G1 F2400 X104.258 Y25.628 E407.06416
G0 F3000 X104.645 Y24.883
G1 F2400 X105.390 Y25.628 E407.09921
G0 F3000 X105.776 Y24.883
G1 F2400 X106.521 Y25.628 E407.13425
G0 F3000 X106.908 Y24.883
G1 F2400 X107.652 Y25.628 E407.16927
G0 F3000 X108.039 Y24.883
G1 F2400 X108.784 Y25.628 E407.20431
G0 F3000 X109.170 Y24.883
G1 F2400 X109.915 Y25.628 E407.23935
G0 F3000 X110.302 Y24.883
G1 F2400 X111.046 Y25.628 E407.27437
G0 F3000 X111.433 Y24.883
G1 F2400 X112.177 Y25.627 E407.30937
G0 F3000 X112.565 Y24.883
G1 F2400 X113.308 Y25.627 E407.34434
G0 F3000 X113.696 Y24.883
G1 F2400 X114.440 Y25.627 E407.37934
G0 F3000 X114.827 Y24.883
G1 F2400 X115.571 Y25.627 E407.41433
G0 F3000 X115.959 Y24.883
G1 F2400 X116.703 Y25.627 E407.44933
G0 F3000 X117.090 Y24.883
G1 F2400 X117.834 Y25.627 E407.48432
G0 F3000 X118.221 Y24.883
G1 F2400 X118.965 Y25.627 E407.51932
G0 F3000 X119.353 Y24.883
G1 F2400 X120.097 Y25.627 E407.55431
G0 F3000 X120.484 Y24.883
G1 F2400 X121.228 Y25.627 E407.58931
G0 F3000 X121.616 Y24.883
G1 F2400 X122.359 Y25.627 E407.62428
G0 F3000 X122.747 Y24.883
G1 F2400 X123.491 Y25.627 E407.65928
G0 F3000 X123.878 Y24.883
G1 F2400 X124.622 Y25.627 E407.69427
G0 F3000 X125.010 Y24.883
G1 F2400 X125.753 Y25.627 E407.72924
G0 F3000 X126.141 Y24.883
G1 F2400 X126.885 Y25.627 E407.76424
G0 F3000 X127.272 Y24.883
G1 F2400 X128.016 Y25.627 E407.79923
G0 F3000 X128.404 Y24.883
G1 F2400 X129.148 Y25.627 E407.83423
G0 F3000 X129.535 Y24.883
G1 F2400 X130.279 Y25.627 E407.86923
G0 F3000 X130.666 Y24.883
G1 F2400 X131.410 Y25.627 E407.90422
G0 F3000 X131.798 Y24.883
G1 F2400 X132.542 Y25.627 E407.93922
G0 F3000 X132.929 Y24.883
G1 F2400 X133.673 Y25.627 E407.97421
G0 F3000 X134.061 Y24.883
G1 F2400 X134.804 Y25.627 E408.00918
G0 F3000 X135.192 Y24.883
G1 F2400 X135.936 Y25.627 E408.04418
G0 F3000 X136.323 Y24.883
G1 F2400 X137.067 Y25.627 E408.07917
G0 F3000 X137.455 Y24.883
G1 F2400 X138.199 Y25.627 E408.11417
G0 F3000 X138.586 Y24.883
G1 F2400 X139.330 Y25.627 E408.14917
G0 F3000 X139.717 Y24.883
G1 F2400 X140.461 Y25.627 E408.18416
G0 F3000 X140.849 Y24.883
G1 F2400 X141.593 Y25.627 E408.21916
G0 F3000 X141.980 Y24.883
G1 F2400 X142.724 Y25.627 E408.25415
G0 F3000 X143.112 Y24.883
G1 F2400 X143.855 Y25.627 E408.28912
G0 F3000 X144.243 Y24.883
G1 F2400 X144.987 Y25.627 E408.32412
G0 F3000 X145.374 Y24.883
G1 F2400 X146.118 Y25.627 E408.35912
G0 F3000 X146.506 Y24.883
G1 F2400 X147.250 Y25.627 E408.39411
G0 F3000 X73.710 Y25.627
G1 F2400 X73.669 Y25.444 E408.39834
G1 X74.216 Y25.567 E408.41372
G1 X73.911 Y24.979 E408.43575
G0 F3000 X74.381 Y24.883
;TYPE:SKIN
G1 X74.952 Y25.455 E408.46263
G0 X75.004 Y25.507
G1 X75.177 Y25.679 E408.47075
G0 X75.518 Y25.455
G1 X74.946 Y24.883 E408.49765
G0 X75.512 Y24.883
G1 X76.083 Y25.455 E408.52453
G0 X76.137 Y25.508
G1 X76.308 Y25.679 E408.53258
G0 X76.649 Y25.455
G1 X76.078 Y24.883 E408.55946
G0 X76.644 Y24.883
G1 X77.215 Y25.455 E408.58634
G0 X77.269 Y25.508
G1 X77.440 Y25.679 E408.59438
G0 X77.781 Y25.455
G1 X77.209 Y24.883 E408.62129
G0 X77.775 Y24.883
G1 X78.346 Y25.455 E408.64817
G0 X78.400 Y25.508
G1 X78.571 Y25.679 E408.65621
G0 X78.912 Y25.455
G1 X78.341 Y24.883 E408.68310
G0 X78.906 Y24.883
G1 X79.478 Y25.455 E408.71000
G0 X79.531 Y25.508
G1 X79.702 Y25.679 E408.71804
G0 X80.043 Y25.455
G1 X79.472 Y24.883 E408.74493
G0 X78.966 Y25.508
G1 X79.137 Y25.679 E408.75297
G0 X78.005 Y25.679
G1 X77.834 Y25.508 E408.76101
G0 X76.874 Y25.679
G1 X76.703 Y25.508 E408.76906
G0 X75.743 Y25.679
G1 X75.572 Y25.508 E408.77710
G0 X74.611 Y25.679
G1 X74.439 Y25.507 E408.78519
G0 X80.038 Y24.883
G1 X80.609 Y25.455 E408.81207
G0 X80.663 Y25.508
G1 X80.834 Y25.679 E408.82011
G0 X81.175 Y25.455
G1 X80.603 Y24.883 E408.84702
G0 X81.169 Y24.883
G1 X81.740 Y25.455 E408.87390
G0 X81.794 Y25.508
G1 X81.965 Y25.679 E408.88194
G0 X82.306 Y25.455
G1 X81.735 Y24.883 E408.90883
G0 X82.300 Y24.883
G1 X82.872 Y25.455 E408.93573
G0 X82.925 Y25.508
G1 X83.097 Y25.679 E408.94380
G0 X83.437 Y25.455
G1 X82.866 Y24.883 E408.97068
G0 X83.432 Y24.883
G1 X84.003 Y25.455 E408.99756
G0 X84.057 Y25.508
G1 X84.228 Y25.679 E409.00560
G0 X84.569 Y25.455
G1 X83.997 Y24.883 E409.03251
G0 X84.563 Y24.883
G1 X85.134 Y25.455 E409.05939
G0 X85.188 Y25.508
G1 X85.359 Y25.679 E409.06743
G0 X85.700 Y25.455
G1 X85.129 Y24.883 E409.09432
G0 X85.694 Y24.883
G1 X86.266 Y25.455 E409.12122
G0 X86.320 Y25.508
G1 X86.491 Y25.679 E409.12926
G0 X86.832 Y25.455
G1 X86.260 Y24.883 E409.15617
G0 X86.826 Y24.883
G1 X87.397 Y25.455 E409.18305
G0 X87.451 Y25.508
G1 X87.622 Y25.679 E409.19109
G0 X87.963 Y25.455
G1 X87.392 Y24.883 E409.21798
G0 X87.957 Y24.883
G1 X88.529 Y25.455 E409.24488
G0 X88.582 Y25.508
G1 X88.753 Y25.679 E409.25293
G0 X89.094 Y25.455
G1 X88.523 Y24.883 E409.27981
G0 X89.089 Y24.883
G1 X89.660 Y25.455 E409.30669
G0 X89.714 Y25.508
G1 X89.885 Y25.679 E409.31473
G0 X90.226 Y25.455
G1 X89.654 Y24.883 E409.34164
G0 X90.220 Y24.883
G1 X90.791 Y25.455 E409.36852
G0 X90.845 Y25.508
G1 X91.016 Y25.679 E409.37656
G0 X91.357 Y25.455
G1 X90.786 Y24.883 E409.40344
G0 X91.351 Y24.883
G1 X91.923 Y25.455 E409.43035
G0 X91.976 Y25.508
G1 X92.148 Y25.679 E409.43842
G0 X92.488 Y25.455
G1 X91.917 Y24.883 E409.46530
G0 X92.483 Y24.883
G1 X93.054 Y25.455 E409.49218
G0 X93.108 Y25.508
G1 X93.279 Y25.679 E409.50022
G0 X93.620 Y25.455
G1 X93.048 Y24.883 E409.52713
G0 X93.614 Y24.883
G1 X94.185 Y25.455 E409.55401
G0 X94.239 Y25.508
G1 X94.410 Y25.679 E409.56205
G0 X94.751 Y25.455
G1 X94.180 Y24.883 E409.58893
G0 X94.745 Y24.883
G1 X95.317 Y25.455 E409.61584
G0 X95.371 Y25.508
G1 X95.542 Y25.679 E409.62388
G0 X95.882 Y25.455
G1 X95.311 Y24.883 E409.65076
G0 X95.877 Y24.883
G1 X96.448 Y25.455 E409.67765
G0 X96.502 Y25.508
G1 X96.673 Y25.679 E409.68569
G0 X97.014 Y25.455
G1 X96.443 Y24.883 E409.71257
G0 X97.008 Y24.883
G1 X97.580 Y25.455 E409.73948
G0 X97.633 Y25.508
G1 X97.804 Y25.679 E409.74752
G0 X98.145 Y25.455
G1 X97.574 Y24.883 E409.77440
G0 X98.140 Y24.883
G1 X98.711 Y25.455 E409.80128
G0 X98.765 Y25.508
G1 X98.936 Y25.679 E409.80933
G0 X99.277 Y25.455
G1 X98.705 Y24.883 E409.83623
G0 X99.271 Y24.883
G1 X99.842 Y25.455 E409.86311
G0 X99.896 Y25.508
G1 X100.067 Y25.679 E409.87116
G0 X100.408 Y25.455
G1 X99.837 Y24.883 E409.89804
G0 X99.330 Y25.508
G1 X99.501 Y25.679 E409.90608
G0 X98.370 Y25.679
G1 X98.199 Y25.508 E409.91412
G0 X97.239 Y25.679
G1 X97.068 Y25.508 E409.92217
G0 X96.107 Y25.679
G1 X95.936 Y25.508 E409.93021
G0 X94.976 Y25.679
G1 X94.805 Y25.508 E409.93825
G0 X93.845 Y25.679
G1 X93.673 Y25.508 E409.94632
G0 X92.713 Y25.679
G1 X92.542 Y25.508 E409.95436
G0 X91.582 Y25.679
G1 X91.411 Y25.508 E409.96241
G0 X90.450 Y25.679
G1 X90.279 Y25.508 E409.97045
G0 X89.319 Y25.679
G1 X89.148 Y25.508 E409.97849
G0 X88.188 Y25.679
G1 X88.017 Y25.508 E409.98654
G0 X87.056 Y25.679
G1 X86.885 Y25.508 E409.99458
G0 X85.925 Y25.679
G1 X85.754 Y25.508 E410.00262
G0 X84.794 Y25.679
G1 X84.623 Y25.508 E410.01067
G0 X83.662 Y25.679
G1 X83.491 Y25.508 E410.01871
G0 X82.531 Y25.679
G1 X82.360 Y25.508 E410.02675
G0 X81.400 Y25.679
G1 X81.228 Y25.508 E410.03482
G0 X80.268 Y25.679
G1 X80.097 Y25.508 E410.04286
G0 X100.402 Y24.883
G1 X100.974 Y25.455 E410.06977
G0 X101.027 Y25.508
G1 X101.199 Y25.679 E410.07784
G0 X101.539 Y25.455
G1 X100.968 Y24.883 E410.10472
G0 X101.534 Y24.883
G1 X102.105 Y25.455 E410.13160
G0 X102.159 Y25.508
G1 X102.330 Y25.679 E410.13964
G0 X102.671 Y25.455
G1 X102.099 Y24.883 E410.16655
G0 X102.665 Y24.883
G1 X103.236 Y25.455 E410.19343
G0 X103.290 Y25.508
G1 X103.461 Y25.679 E410.20147
G0 X103.802 Y25.455
G1 X103.231 Y24.883 E410.22835
G0 X103.796 Y24.883
G1 X104.368 Y25.455 E410.25526
G0 X104.421 Y25.508
G1 X104.593 Y25.679 E410.26333
G0 X104.933 Y25.455
G1 X104.362 Y24.883 E410.29021
G0 X104.928 Y24.883
G1 X105.499 Y25.455 E410.31709
G0 X105.553 Y25.508
G1 X105.724 Y25.679 E410.32513
G0 X106.065 Y25.455
G1 X105.493 Y24.883 E410.35204
G0 X106.059 Y24.883
G1 X106.630 Y25.455 E410.37892
G0 X106.684 Y25.508
G1 X106.855 Y25.679 E410.38696
G0 X107.196 Y25.455
G1 X106.625 Y24.883 E410.41384
G0 X107.191 Y24.883
G1 X107.762 Y25.455 E410.44073
G0 X107.816 Y25.508
G1 X107.987 Y25.679 E410.44877
G0 X108.328 Y25.455
G1 X107.756 Y24.883 E410.47567
G0 X108.322 Y24.883
G1 X108.893 Y25.455 E410.50256
G0 X108.947 Y25.508
G1 X109.118 Y25.679 E410.51060
G0 X109.459 Y25.455
G1 X108.888 Y24.883 E410.53748
G0 X109.453 Y24.883
G1 X110.025 Y25.455 E410.56439
G0 X110.078 Y25.508
G1 X110.249 Y25.679 E410.57243
G0 X110.590 Y25.455
G1 X110.019 Y24.883 E410.59931
G0 X110.585 Y24.883
G1 X111.156 Y25.455 E410.62619
G0 X111.210 Y25.508
G1 X111.381 Y25.679 E410.63424
G0 X111.722 Y25.455
G1 X111.150 Y24.883 E410.66114
G0 X111.716 Y24.883
G1 X112.287 Y25.455 E410.68802
G0 X112.341 Y25.508
G1 X112.512 Y25.679 E410.69607
G0 X112.853 Y25.455
G1 X112.282 Y24.883 E410.72295
G0 X112.847 Y24.883
G1 X113.419 Y25.455 E410.74985
G0 X113.472 Y25.508
G1 X113.644 Y25.679 E410.75792
G0 X113.984 Y25.455
G1 X113.413 Y24.883 E410.78480
G0 X113.979 Y24.883
G1 X114.550 Y25.455 E410.81168
G0 X114.604 Y25.508
G1 X114.775 Y25.679 E410.81973
G0 X115.116 Y25.455
G1 X114.544 Y24.883 E410.84663
G0 X115.110 Y24.883
G1 X115.681 Y25.455 E410.87351
G0 X115.735 Y25.508
G1 X115.906 Y25.679 E410.88156
G0 X116.247 Y25.455
G1 X115.676 Y24.883 E410.90844
G0 X116.241 Y24.883
G1 X116.813 Y25.455 E410.93534
G0 X116.867 Y25.508
G1 X117.038 Y25.679 E410.94339
G0 X117.379 Y25.455
G1 X116.807 Y24.883 E410.97029
G0 X117.373 Y24.883
G1 X117.944 Y25.455 E410.99717
G0 X117.998 Y25.508
G1 X118.169 Y25.679 E411.00522
G0 X118.510 Y25.455
G1 X117.939 Y24.883 E411.03210
G0 X118.504 Y24.883
G1 X119.076 Y25.455 E411.05900
G0 X119.129 Y25.508
G1 X119.300 Y25.679 E411.06705
G0 X119.641 Y25.455
G1 X119.070 Y24.883 E411.09393
G0 X119.636 Y24.883
G1 X120.207 Y25.455 E411.12081
G0 X120.261 Y25.508
G1 X120.432 Y25.679 E411.12885
G0 X120.773 Y25.455
G1 X120.201 Y24.883 E411.15576
G0 X120.767 Y24.883
G1 X121.338 Y25.455 E411.18264
G0 X121.392 Y25.508
G1 X121.563 Y25.679 E411.19068
G0 X121.904 Y25.455
G1 X121.333 Y24.883 E411.21756
G0 X121.898 Y24.883
G1 X122.470 Y25.455 E411.24447
G0 X122.523 Y25.508
G1 X122.695 Y25.679 E411.25254
G0 X123.035 Y25.455
G1 X122.464 Y24.883 E411.27942
G0 X123.030 Y24.883
G1 X123.601 Y25.455 E411.30630
G0 X123.655 Y25.508
G1 X123.826 Y25.679 E411.31434
G0 X124.167 Y25.455
G1 X123.595 Y24.883 E411.34125
G0 X124.161 Y24.883
G1 X124.732 Y25.455 E411.36813
G0 X124.786 Y25.508
G1 X124.957 Y25.679 E411.37617
G0 X125.298 Y25.455
G1 X124.727 Y24.883 E411.40305
G0 X125.292 Y24.883
G1 X125.864 Y25.455 E411.42996
G0 X125.918 Y25.508
G1 X126.089 Y25.679 E411.43800
G0 X126.429 Y25.455
G1 X125.858 Y24.883 E411.46488
G0 X126.424 Y24.883
G1 X126.995 Y25.455 E411.49177
G0 X127.049 Y25.508
G1 X127.220 Y25.679 E411.49981
G0 X127.561 Y25.455
G1 X126.990 Y24.883 E411.52669
G0 X127.555 Y24.883
G1 X128.127 Y25.455 E411.55360
G0 X128.180 Y25.508
G1 X128.351 Y25.679 E411.56164
G0 X128.692 Y25.455
G1 X128.121 Y24.883 E411.58852
G0 X128.687 Y24.883
G1 X129.258 Y25.455 E411.61540
G0 X129.312 Y25.508
G1 X129.483 Y25.679 E411.62345
G0 X129.824 Y25.455
G1 X129.252 Y24.883 E411.65035
G0 X129.818 Y24.883
G1 X130.389 Y25.455 E411.67723
G0 X130.443 Y25.508
G1 X130.614 Y25.679 E411.68528
G0 X130.955 Y25.455
G1 X130.384 Y24.883 E411.71216
G0 X130.949 Y24.883
G1 X131.521 Y25.455 E411.73906
G0 X131.574 Y25.508
G1 X131.746 Y25.679 E411.74713
G0 X132.086 Y25.455
G1 X131.515 Y24.883 E411.77401
G0 X132.081 Y24.883
G1 X132.652 Y25.455 E411.80089
G0 X132.706 Y25.508
G1 X132.877 Y25.679 E411.80894
G0 X133.218 Y25.455
G1 X132.646 Y24.883 E411.83584
G0 X133.212 Y24.883
G1 X133.783 Y25.455 E411.86272
G0 X133.837 Y25.508
G1 X134.008 Y25.679 E411.87077
G0 X134.349 Y25.455
G1 X133.778 Y24.883 E411.89765
G0 X134.343 Y24.883
G1 X134.915 Y25.455 E411.92455
G0 X134.969 Y25.508
G1 X135.140 Y25.679 E411.93260
G0 X135.480 Y25.455
G1 X134.909 Y24.883 E411.95948
G0 X135.475 Y24.883
G1 X136.046 Y25.455 E411.98636
G0 X136.100 Y25.508
G1 X136.271 Y25.679 E411.99440
G0 X136.612 Y25.455
G1 X136.040 Y24.883 E412.02131
G0 X136.606 Y24.883
G1 X137.178 Y25.455 E412.04821
G0 X137.231 Y25.508
G1 X137.402 Y25.679 E412.05626
G0 X137.743 Y25.455
G1 X137.172 Y24.883 E412.08314
G0 X137.738 Y24.883
G1 X138.309 Y25.455 E412.11002
G0 X138.363 Y25.508
G1 X138.534 Y25.679 E412.11806
G0 X138.875 Y25.455
G1 X138.303 Y24.883 E412.14497
G0 X138.869 Y24.883
G1 X139.440 Y25.455 E412.17185
G0 X139.494 Y25.508
G1 X139.665 Y25.679 E412.17989
G0 X140.006 Y25.455
G1 X139.435 Y24.883 E412.20677
G0 X138.928 Y25.508
G1 X139.099 Y25.679 E412.21482
G0 X137.968 Y25.679
G1 X137.797 Y25.508 E412.22286
G0 X136.837 Y25.679
G1 X136.666 Y25.508 E412.23090
G0 X135.705 Y25.679
G1 X135.534 Y25.508 E412.23895
G0 X134.574 Y25.679
G1 X134.403 Y25.508 E412.24699
G0 X133.443 Y25.679
G1 X133.271 Y25.508 E412.25506
G0 X132.311 Y25.679
G1 X132.140 Y25.508 E412.26310
G0 X131.180 Y25.679
G1 X131.009 Y25.508 E412.27114
G0 X130.048 Y25.679
G1 X129.877 Y25.508 E412.27919
G0 X128.917 Y25.679
G1 X128.746 Y25.508 E412.28723
G0 X127.786 Y25.679
G1 X127.615 Y25.508 E412.29527
G0 X126.654 Y25.679
G1 X126.483 Y25.508 E412.30332
G0 X125.523 Y25.679
G1 X125.352 Y25.508 E412.31136
G0 X124.392 Y25.679
G1 X124.220 Y25.508 E412.31943
